backend/luts/fuji_3510.cube
# Fuji 3510 inspired LUT
TITLE "Fuji 3510"
LUT_3D_SIZE 17
0.000000 0.000000 0.000000
0.000000 0.000000 0.000000
0.042463 0.000000 0.000201
0.091870 0.000000 0.004326
0.141277 0.000000 0.008452
0.190684 0.000000 0.012578
0.240091 0.000000 0.016704
0.289498 0.000000 0.020829
0.338905 0.000000 0.024955
0.388312 0.000000 0.029081
0.437719 0.001007 0.033207
0.487126 0.005133 0.037333
0.536533 0.009258 0.041458
0.585940 0.013384 0.045584
0.635347 0.017510 0.049710
0.684754 0.021636 0.053836
0.734161 0.025761 0.057961
0.000000 0.020224 0.006137
0.007244 0.024350 0.010263
0.056651 0.028476 0.014388
0.106058 0.032602 0.018514
0.155465 0.036727 0.022640
0.204872 0.040853 0.026766
0.254279 0.044979 0.030891
0.303686 0.049105 0.035017
0.353093 0.053231 0.039143
0.402500 0.057356 0.043269
0.451907 0.061482 0.047395
0.501314 0.065608 0.051520
0.550721 0.069734 0.055646
0.600128 0.073859 0.059772
0.649535 0.077985 0.063898
0.698942 0.082111 0.068023
0.748349 0.086237 0.072149
0.000000 0.080700 0.020325
0.021432 0.084825 0.024450
0.070839 0.088951 0.028576
0.120246 0.093077 0.032702
0.169653 0.097203 0.036828
0.219060 0.101328 0.040953
0.268467 0.105454 0.045079
0.317874 0.109580 0.049205
0.367281 0.113706 0.053331
0.416688 0.117832 0.057457
0.466095 0.121957 0.061582
0.515502 0.126083 0.065708
0.564909 0.130209 0.069834
0.614316 0.134335 0.073960
0.663723 0.138460 0.078085
0.713130 0.142586 0.082211
0.762537 0.146712 0.086337
0.000000 0.141175 0.034512
0.035619 0.145301 0.038638
0.085026 0.149426 0.042764
0.134433 0.153552 0.046890
0.183841 0.157678 0.051016
0.233248 0.161804 0.055141
0.282655 0.165930 0.059267
0.332062 0.170055 0.063393
0.381469 0.174181 0.067519
0.430876 0.178307 0.071644
0.480283 0.182433 0.075770
0.529690 0.186558 0.079896
0.579097 0.190684 0.084022
0.628504 0.194810 0.088147
0.677911 0.198936 0.092273
0.727318 0.203061 0.096399
0.776725 0.207187 0.100525
0.000400 0.201650 0.048700
0.049807 0.205776 0.052826
0.099214 0.209902 0.056952
0.148621 0.214028 0.061078
0.198028 0.218153 0.065203
0.247435 0.222279 0.069329
0.296842 0.226405 0.073455
0.346249 0.230531 0.077581
0.395656 0.234656 0.081706
0.445063 0.238782 0.085832
0.494470 0.242908 0.089958
0.543877 0.247034 0.094084
0.593284 0.251159 0.098209
0.642691 0.255285 0.102335
0.692098 0.259411 0.106461
0.741505 0.263537 0.110587
0.790913 0.267663 0.114713
0.014588 0.262125 0.062888
0.063995 0.266251 0.067014
0.113402 0.270377 0.071140
0.162809 0.274503 0.075265
0.212216 0.278629 0.079391
0.261623 0.282754 0.083517
0.311030 0.286880 0.087643
0.360437 0.291006 0.091768
0.409844 0.295132 0.095894
0.459251 0.299257 0.100020
0.508658 0.303383 0.104146
0.558065 0.307509 0.108271
0.607472 0.311635 0.112397
0.656879 0.315760 0.116523
0.706286 0.319886 0.120649
0.755693 0.324012 0.124775
0.805100 0.328138 0.128900
0.028776 0.322601 0.077076
0.078183 0.326727 0.081202
0.127590 0.330852 0.085327
0.176997 0.334978 0.089453
0.226404 0.339104 0.093579
0.275811 0.343230 0.097705
0.325218 0.347355 0.101830
0.374625 0.351481 0.105956
0.424032 0.355607 0.110082
0.473439 0.359733 0.114208
0.522846 0.363858 0.118333
0.572253 0.367984 0.122459
0.621660 0.372110 0.126585
0.671067 0.376236 0.130711
0.720474 0.380362 0.134837
0.769881 0.384487 0.138962
0.819288 0.388613 0.143088
0.042964 0.383076 0.091264
0.092371 0.387202 0.095389
0.141778 0.391328 0.099515
0.191185 0.395453 0.103641
0.240592 0.399579 0.107767
0.289999 0.403705 0.111892
0.339406 0.407831 0.116018
0.388813 0.411956 0.120144
0.438220 0.416082 0.124270
0.487627 0.420208 0.128395
0.537034 0.424334 0.132521
0.586441 0.428460 0.136647
0.635848 0.432585 0.140773
0.685255 0.436711 0.144899
0.734662 0.440837 0.149024
0.784069 0.444963 0.153150
0.833476 0.449088 0.157276
0.057151 0.443551 0.105451
0.106558 0.447677 0.109577
0.155965 0.451803 0.113703
0.205372 0.455929 0.117829
0.254779 0.460054 0.121954
0.304186 0.464180 0.126080
0.353593 0.468306 0.130206
0.403000 0.472432 0.134332
0.452407 0.476557 0.138457
0.501814 0.480683 0.142583
0.551222 0.484809 0.146709
0.600629 0.488935 0.150835
0.650036 0.493061 0.154961
0.699443 0.497186 0.159086
0.748850 0.501312 0.163212
0.798257 0.505438 0.167338
0.847664 0.509564 0.171464
0.071339 0.504027 0.119639
0.120746 0.508152 0.123765
0.170153 0.512278 0.127891
0.219560 0.516404 0.132016
0.268967 0.520530 0.136142
0.318374 0.524655 0.140268
0.367781 0.528781 0.144394
0.417188 0.532907 0.148519
0.466595 0.537033 0.152645
0.516002 0.541159 0.156771
0.565409 0.545284 0.160897
0.614816 0.549410 0.165023
0.664223 0.553536 0.169148
0.713630 0.557662 0.173274
0.763037 0.561787 0.177400
0.812444 0.565913 0.181526
0.861851 0.570039 0.185651
0.085527 0.564502 0.133827
0.134934 0.568628 0.137953
0.184341 0.572753 0.142078
0.233748 0.576879 0.146204
0.283155 0.581005 0.150330
0.332562 0.585131 0.154456
0.381969 0.589257 0.158582
0.431376 0.593382 0.162707
0.480783 0.597508 0.166833
0.530190 0.601634 0.170959
0.579597 0.605760 0.175085
0.629004 0.609885 0.179210
0.678411 0.614011 0.183336
0.727818 0.618137 0.187462
0.777225 0.622263 0.191588
0.826632 0.626388 0.195713
0.876039 0.630514 0.199839
0.099715 0.624977 0.148015
0.149122 0.629103 0.152140
0.198529 0.633229 0.156266
0.247936 0.637354 0.160392
0.297343 0.641480 0.164518
0.346750 0.645606 0.168644
0.396157 0.649732 0.172769
0.445564 0.653858 0.176895
0.494971 0.657983 0.181021
0.544378 0.662109 0.185147
0.593785 0.666235 0.189272
0.643192 0.670361 0.193398
0.692599 0.674486 0.197524
0.742006 0.678612 0.201650
0.791413 0.682738 0.205775
0.840820 0.686864 0.209901
0.890227 0.690989 0.214027
0.113902 0.685452 0.162202
0.163309 0.689578 0.166328
0.212716 0.693704 0.170454
0.262124 0.697830 0.174580
0.311531 0.701956 0.178706
0.360938 0.706081 0.182831
0.410345 0.710207 0.186957
0.459752 0.714333 0.191083
0.509159 0.718459 0.195209
0.558566 0.722584 0.199334
0.607973 0.726710 0.203460
0.657380 0.730836 0.207586
0.706787 0.734962 0.211712
0.756194 0.739087 0.215837
0.805601 0.743213 0.219963
0.855008 0.747339 0.224089
0.904415 0.751465 0.228215
0.128090 0.745928 0.176390
0.177497 0.750053 0.180516
0.226904 0.754179 0.184642
0.276311 0.758305 0.188768
0.325718 0.762431 0.192893
0.375125 0.766557 0.197019
0.424532 0.770682 0.201145
0.473939 0.774808 0.205271
0.523346 0.778934 0.209396
0.572753 0.783060 0.213522
0.622160 0.787185 0.217648
0.671567 0.791311 0.221774
0.720974 0.795437 0.225899
0.770381 0.799563 0.230025
0.819788 0.803688 0.234151
0.869196 0.807814 0.238277
0.918603 0.811940 0.242403
0.142278 0.806403 0.190578
0.191685 0.810529 0.194704
0.241092 0.814655 0.198830
0.290499 0.818780 0.202955
0.339906 0.822906 0.207081
0.389313 0.827032 0.211207
0.438720 0.831158 0.215333
0.488127 0.835283 0.219458
0.537534 0.839409 0.223584
0.586941 0.843535 0.227710
0.636348 0.847661 0.231836
0.685755 0.851786 0.235961
0.735162 0.855912 0.240087
0.784569 0.860038 0.244213
0.833976 0.864164 0.248339
0.883383 0.868290 0.252465
0.932790 0.872415 0.256590
0.156466 0.866878 0.204766
0.205873 0.871004 0.208892
0.255280 0.875130 0.213017
0.304687 0.879256 0.217143
0.354094 0.883381 0.221269
0.403501 0.887507 0.225395
0.452908 0.891633 0.229520
0.502315 0.895759 0.233646
0.551722 0.899884 0.237772
0.601129 0.904010 0.241898
0.650536 0.908136 0.246023
0.699943 0.912262 0.250149
0.749350 0.916388 0.254275
0.798757 0.920513 0.258401
0.848164 0.924639 0.262527
0.897571 0.928765 0.266652
0.946978 0.932891 0.270778
0.170654 0.927354 0.218954
0.220061 0.931479 0.223079
0.269468 0.935605 0.227205
0.318875 0.939731 0.231331
0.368282 0.943857 0.235457
0.417689 0.947982 0.239582
0.467096 0.952108 0.243708
0.516503 0.956234 0.247834
0.565910 0.960360 0.251960
0.615317 0.964485 0.256085
0.664724 0.968611 0.260211
0.714131 0.970000 0.264337
0.763538 0.970000 0.268463
0.812945 0.970000 0.272589
0.862352 0.970000 0.276714
0.911759 0.970000 0.280840
0.961166 0.970000 0.284966
0.000000 0.000000 0.040706
0.000000 0.000000 0.044832
0.043927 0.000000 0.048958
0.093334 0.000000 0.053084
0.142741 0.000000 0.057209
0.192148 0.000000 0.061335
0.241555 0.000000 0.065461
0.290962 0.000000 0.069587
0.340369 0.000000 0.073712
0.389776 0.000000 0.077838
0.439183 0.002470 0.081964
0.488590 0.006596 0.086090
0.537997 0.010722 0.090215
0.587404 0.014847 0.094341
0.636811 0.018973 0.098467
0.686218 0.023099 0.102593
0.735625 0.027225 0.106719
0.000000 0.021688 0.054894
0.008707 0.025814 0.059020
0.058114 0.029939 0.063146
0.107521 0.034065 0.067271
0.156928 0.038191 0.071397
0.206335 0.042317 0.075523
0.255742 0.046442 0.079649
0.305149 0.050568 0.083774
0.354556 0.054694 0.087900
0.403963 0.058820 0.092026
0.453370 0.062945 0.096152
0.502777 0.067071 0.100277
0.552184 0.071197 0.104403
0.601592 0.075323 0.108529
0.650999 0.079449 0.112655
0.700406 0.083574 0.116781
0.749813 0.087700 0.120906
0.000000 0.082163 0.069082
0.022895 0.086289 0.073208
0.072302 0.090415 0.077333
0.121709 0.094540 0.081459
0.171116 0.098666 0.085585
0.220523 0.102792 0.089711
0.269930 0.106918 0.093836
0.319337 0.111043 0.097962
0.368744 0.115169 0.102088
0.418151 0.119295 0.106214
0.467558 0.123421 0.110339
0.516965 0.127547 0.114465
0.566372 0.131672 0.118591
0.615779 0.135798 0.122717
0.665186 0.139924 0.126843
0.714593 0.144050 0.130968
0.764000 0.148175 0.135094
0.000000 0.142638 0.083270
0.037083 0.146764 0.087395
0.086490 0.150890 0.091521
0.135897 0.155016 0.095647
0.185304 0.159141 0.099773
0.234711 0.163267 0.103898
0.284118 0.167393 0.108024
0.333525 0.171519 0.112150
0.382932 0.175644 0.116276
0.432339 0.179770 0.120402
0.481746 0.183896 0.124527
0.531153 0.188022 0.128653
0.580560 0.192148 0.132779
0.629967 0.196273 0.136905
0.679374 0.200399 0.141030
0.728781 0.204525 0.145156
0.778188 0.208651 0.149282
0.001864 0.203114 0.097457
0.051271 0.207239 0.101583
0.100678 0.211365 0.105709
0.150085 0.215491 0.109835
0.199492 0.219617 0.113960
0.248899 0.223742 0.118086
0.298306 0.227868 0.122212
0.347713 0.231994 0.126338
0.397120 0.236120 0.130464
0.446527 0.240246 0.134589
0.495934 0.244371 0.138715
0.545341 0.248497 0.142841
0.594748 0.252623 0.146967
0.644155 0.256749 0.151092
0.693562 0.260874 0.155218
0.742969 0.265000 0.159344
0.792376 0.269126 0.163470
0.016051 0.263589 0.111645
0.065458 0.267715 0.115771
0.114865 0.271840 0.119897
0.164272 0.275966 0.124022
0.213679 0.280092 0.128148
0.263086 0.284218 0.132274
0.312494 0.288344 0.136400
0.361901 0.292469 0.140526
0.411308 0.296595 0.144651
0.460715 0.300721 0.148777
0.510122 0.304847 0.152903
0.559529 0.308972 0.157029
0.608936 0.313098 0.161154
0.658343 0.317224 0.165280
0.707750 0.321350 0.169406
0.757157 0.325475 0.173532
0.806564 0.329601 0.177657
0.030239 0.324064 0.125833
0.079646 0.328190 0.129959
0.129053 0.332316 0.134084
0.178460 0.336441 0.138210
0.227867 0.340567 0.142336
0.277274 0.344693 0.146462
0.326681 0.348819 0.150588
0.376088 0.352945 0.154713
0.425495 0.357070 0.158839
0.474902 0.361196 0.162965
0.524309 0.365322 0.167091
0.573716 0.369448 0.171216
0.623123 0.373573 0.175342
0.672530 0.377699 0.179468
0.721937 0.381825 0.183594
0.771344 0.385951 0.187719
0.820751 0.390076 0.191845
0.044427 0.384539 0.140021
0.093834 0.388665 0.144146
0.143241 0.392791 0.148272
0.192648 0.396917 0.152398
0.242055 0.401043 0.156524
0.291462 0.405168 0.160650
0.340869 0.409294 0.164775
0.390276 0.413420 0.168901
0.439683 0.417546 0.173027
0.489090 0.421671 0.177153
0.538497 0.425797 0.181278
0.587904 0.429923 0.185404
0.637311 0.434049 0.189530
0.686718 0.438174 0.193656
0.736125 0.442300 0.197781
0.785532 0.446426 0.201907
0.834939 0.450552 0.206033
0.058615 0.445015 0.154208
0.108022 0.449141 0.158334
0.157429 0.453266 0.162460
0.206836 0.457392 0.166586
0.256243 0.461518 0.170712
0.305650 0.465644 0.174837
0.355057 0.469769 0.178963
0.404464 0.473895 0.183089
0.453871 0.478021 0.187215
0.503278 0.482147 0.191340
0.552685 0.486272 0.195466
0.602092 0.490398 0.199592
0.651499 0.494524 0.203718
0.700906 0.498650 0.207843
0.750313 0.502775 0.211969
0.799720 0.506901 0.216095
0.849127 0.511027 0.220221
0.072803 0.505490 0.168396
0.122210 0.509616 0.172522
0.171617 0.513742 0.176648
0.221024 0.517867 0.180774
0.270431 0.521993 0.184899
0.319838 0.526119 0.189025
0.369245 0.530245 0.193151
0.418652 0.534370 0.197277
0.468059 0.538496 0.201402
0.517466 0.542622 0.205528
0.566873 0.546748 0.209654
0.616280 0.550873 0.213780
0.665687 0.554999 0.217905
0.715094 0.559125 0.222031
0.764501 0.563251 0.226157
0.813908 0.567377 0.230283
0.863315 0.571502 0.234409
0.086990 0.565965 0.182584
0.136397 0.570091 0.186710
0.185804 0.574217 0.190836
0.235211 0.578343 0.194961
0.284618 0.582468 0.199087
0.334025 0.586594 0.203213
0.383432 0.590720 0.207339
0.432839 0.594846 0.211464
0.482246 0.598971 0.215590
0.531653 0.603097 0.219716
0.581060 0.607223 0.223842
0.630468 0.611349 0.227968
0.679875 0.615475 0.232093
0.729282 0.619600 0.236219
0.778689 0.623726 0.240345
0.828096 0.627852 0.244471
0.877503 0.631978 0.248596
0.101178 0.626441 0.196772
0.150585 0.630566 0.200898
0.199992 0.634692 0.205023
0.249399 0.638818 0.209149
0.298806 0.642944 0.213275
0.348213 0.647069 0.217401
0.397620 0.651195 0.221526
0.447027 0.655321 0.225652
0.496434 0.659447 0.229778
0.545841 0.663572 0.233904
0.595248 0.667698 0.238030
0.644655 0.671824 0.242155
0.694062 0.675950 0.246281
0.743469 0.680076 0.250407
0.792876 0.684201 0.254533
0.842283 0.688327 0.258658
0.891690 0.692453 0.262784
0.115366 0.686916 0.210960
0.164773 0.691042 0.215085
0.214180 0.695167 0.219211
0.263587 0.699293 0.223337
0.312994 0.703419 0.227463
0.362401 0.707545 0.231588
0.411808 0.711670 0.235714
0.461215 0.715796 0.239840
0.510622 0.719922 0.243966
0.560029 0.724048 0.248092
0.609436 0.728174 0.252217
0.658843 0.732299 0.256343
0.708250 0.736425 0.260469
0.757657 0.740551 0.264595
0.807064 0.744677 0.268720
0.856471 0.748802 0.272846
0.905878 0.752928 0.276972
0.129554 0.747391 0.225147
0.178961 0.751517 0.229273
0.228368 0.755643 0.233399
0.277775 0.759768 0.237525
0.327182 0.763894 0.241650
0.376589 0.768020 0.245776
0.425996 0.772146 0.249902
0.475403 0.776272 0.254028
0.524810 0.780397 0.258154
0.574217 0.784523 0.262279
0.623624 0.788649 0.266405
0.673031 0.792775 0.270531
0.722438 0.796900 0.274657
0.771845 0.801026 0.278782
0.821252 0.805152 0.282908
0.870659 0.809278 0.287034
0.920066 0.813403 0.291160
0.143741 0.807866 0.239335
0.193148 0.811992 0.243461
0.242555 0.816118 0.247587
0.291962 0.820244 0.251712
0.341369 0.824369 0.255838
0.390777 0.828495 0.259964
0.440184 0.832621 0.264090
0.489591 0.836747 0.268216
0.538998 0.840873 0.272341
0.588405 0.844998 0.276467
0.637812 0.849124 0.280593
0.687219 0.853250 0.284719
0.736626 0.857376 0.288844
0.786033 0.861501 0.292970
0.835440 0.865627 0.297096
0.884847 0.869753 0.301222
0.934254 0.873879 0.305347
0.157929 0.868342 0.253523
0.207336 0.872467 0.257649
0.256743 0.876593 0.261774
0.306150 0.880719 0.265900
0.355557 0.884845 0.270026
0.404964 0.888971 0.274152
0.454371 0.893096 0.278278
0.503778 0.897222 0.282403
0.553185 0.901348 0.286529
0.602592 0.905474 0.290655
0.651999 0.909599 0.294781
0.701406 0.913725 0.298906
0.750813 0.917851 0.303032
0.800220 0.921977 0.307158
0.849627 0.926102 0.311284
0.899034 0.930228 0.315409
0.948441 0.934354 0.319535
0.172117 0.928817 0.267711
0.221524 0.932943 0.271836
0.270931 0.937069 0.275962
0.320338 0.941194 0.280088
0.369745 0.945320 0.284214
0.419152 0.949446 0.288340
0.468559 0.953572 0.292465
0.517966 0.957697 0.296591
0.567373 0.961823 0.300717
0.616780 0.965949 0.304843
0.666187 0.970000 0.308968
0.715594 0.970000 0.313094
0.765001 0.970000 0.317220
0.814408 0.970000 0.321346
0.863815 0.970000 0.325471
0.913222 0.970000 0.329597
0.962629 0.970000 0.333723
0.000000 0.000000 0.089463
0.000000 0.000000 0.093589
0.045390 0.000000 0.097715
0.094797 0.000000 0.101841
0.144204 0.000000 0.105966
0.193611 0.000000 0.110092
0.243018 0.000000 0.114218
0.292425 0.000000 0.118344
0.341832 0.000000 0.122470
0.391239 0.000000 0.126595
0.440646 0.003934 0.130721
0.490053 0.008059 0.134847
0.539460 0.012185 0.138973
0.588867 0.016311 0.143098
0.638274 0.020437 0.147224
0.687681 0.024562 0.151350
0.737088 0.028688 0.155476
0.000000 0.023151 0.103651
0.010171 0.027277 0.107777
0.059578 0.031403 0.111903
0.108985 0.035528 0.116028
0.158392 0.039654 0.120154
0.207799 0.043780 0.124280
0.257206 0.047906 0.128406
0.306613 0.052032 0.132532
0.356020 0.056157 0.136657
0.405427 0.060283 0.140783
0.454834 0.064409 0.144909
0.504241 0.068535 0.149035
0.553648 0.072660 0.153160
0.603055 0.076786 0.157286
0.652462 0.080912 0.161412
0.701869 0.085038 0.165538
0.751276 0.089163 0.169663
0.000000 0.083626 0.117839
0.024358 0.087752 0.121965
0.073765 0.091878 0.126090
0.123173 0.096004 0.130216
0.172580 0.100130 0.134342
0.221987 0.104255 0.138468
0.271394 0.108381 0.142594
0.320801 0.112507 0.146719
0.370208 0.116633 0.150845
0.419615 0.120758 0.154971
0.469022 0.124884 0.159097
0.518429 0.129010 0.163222
0.567836 0.133136 0.167348
0.617243 0.137261 0.171474
0.666650 0.141387 0.175600
0.716057 0.145513 0.179725
0.765464 0.149639 0.183851
0.000000 0.144102 0.132027
0.038546 0.148228 0.136153
0.087953 0.152353 0.140278
0.137360 0.156479 0.144404
0.186767 0.160605 0.148530
0.236174 0.164731 0.152656
0.285581 0.168856 0.156781
0.334988 0.172982 0.160907
0.384395 0.177108 0.165033
0.433802 0.181234 0.169159
0.483209 0.185359 0.173284
0.532616 0.189485 0.177410
0.582023 0.193611 0.181536
0.631430 0.197737 0.185662
0.680837 0.201863 0.189787
0.730245 0.205988 0.193913
0.779652 0.210114 0.198039
0.003327 0.204577 0.146215
0.052734 0.208703 0.150340
0.102141 0.212829 0.154466
0.151548 0.216954 0.158592
0.200955 0.221080 0.162718
0.250362 0.225206 0.166843
0.299769 0.229332 0.170969
0.349176 0.233457 0.175095
0.398583 0.237583 0.179221
0.447990 0.241709 0.183346
0.497397 0.245835 0.187472
0.546804 0.249960 0.191598
0.596211 0.254086 0.195724
0.645618 0.258212 0.199850
0.695025 0.262338 0.203975
0.744432 0.266464 0.208101
0.793839 0.270589 0.212227
0.017515 0.265052 0.160402
0.066922 0.269178 0.164528
0.116329 0.273304 0.168654
0.165736 0.277430 0.172780
0.215143 0.281555 0.176905
0.264550 0.285681 0.181031
0.313957 0.289807 0.185157
0.363364 0.293933 0.189283
0.412771 0.298058 0.193408
0.462178 0.302184 0.197534
0.511585 0.306310 0.201660
0.560992 0.310436 0.205786
0.610399 0.314562 0.209912
0.659806 0.318687 0.214037
0.709213 0.322813 0.218163
0.758620 0.326939 0.222289
0.808027 0.331065 0.226415
0.031703 0.325528 0.174590
0.081110 0.329653 0.178716
0.130517 0.333779 0.182842
0.179924 0.337905 0.186967
0.229331 0.342031 0.191093
0.278738 0.346156 0.195219
0.328145 0.350282 0.199345
0.377552 0.354408 0.203470
0.426959 0.358534 0.207596
0.476366 0.362659 0.211722
0.525773 0.366785 0.215848
0.575180 0.370911 0.219974
0.624587 0.375037 0.224099
0.673994 0.379163 0.228225
0.723401 0.383288 0.232351
0.772808 0.387414 0.236477
0.822215 0.391540 0.240602
0.045890 0.386003 0.188778
0.095297 0.390129 0.192904
0.144704 0.394254 0.197029
0.194111 0.398380 0.201155
0.243518 0.402506 0.205281
0.292925 0.406632 0.209407
0.342332 0.410757 0.213532
0.391739 0.414883 0.217658
0.441147 0.419009 0.221784
0.490554 0.423135 0.225910
0.539961 0.427261 0.230036
0.589368 0.431386 0.234161
0.638775 0.435512 0.238287
0.688182 0.439638 0.242413
0.737589 0.443764 0.246539
0.786996 0.447889 0.250664
0.836403 0.452015 0.254790
0.060078 0.446478 0.202966
0.109485 0.450604 0.207091
0.158892 0.454730 0.211217
0.208299 0.458855 0.215343
0.257706 0.462981 0.219469
0.307113 0.467107 0.223594
0.356520 0.471233 0.227720
0.405927 0.475359 0.231846
0.455334 0.479484 0.235972
0.504741 0.483610 0.240098
0.554148 0.487736 0.244223
0.603555 0.491862 0.248349
0.652962 0.495987 0.252475
0.702369 0.500113 0.256601
0.751776 0.504239 0.260726
0.801183 0.508365 0.264852
0.850590 0.512490 0.268978
0.074266 0.506953 0.217153
0.123673 0.511079 0.221279
0.173080 0.515205 0.225405
0.222487 0.519331 0.229531
0.271894 0.523456 0.233656
0.321301 0.527582 0.237782
0.370708 0.531708 0.241908
0.420115 0.535834 0.246034
0.469522 0.539960 0.250160
0.518929 0.544085 0.254285
0.568336 0.548211 0.258411
0.617743 0.552337 0.262537
0.667150 0.556463 0.266663
0.716557 0.560588 0.270788
0.765964 0.564714 0.274914
0.815371 0.568840 0.279040
0.864778 0.572966 0.283166
0.088454 0.567429 0.231341
0.137861 0.571554 0.235467
0.187268 0.575680 0.239593
0.236675 0.579806 0.243719
0.286082 0.583932 0.247844
0.335489 0.588058 0.251970
0.384896 0.592183 0.256096
0.434303 0.596309 0.260222
0.483710 0.600435 0.264347
0.533117 0.604561 0.268473
0.582524 0.608686 0.272599
0.631931 0.612812 0.276725
0.681338 0.616938 0.280850
0.730745 0.621064 0.284976
0.780152 0.625189 0.289102
0.829559 0.629315 0.293228
0.878966 0.633441 0.297353
0.102641 0.627904 0.245529
0.152048 0.632030 0.249655
0.201456 0.636156 0.253781
0.250863 0.640281 0.257906
0.300270 0.644407 0.262032
0.349677 0.648533 0.266158
0.399084 0.652659 0.270284
0.448491 0.656784 0.274409
0.497898 0.660910 0.278535
0.547305 0.665036 0.282661
0.596712 0.669162 0.286787
0.646119 0.673287 0.290912
0.695526 0.677413 0.295038
0.744933 0.681539 0.299164
0.794340 0.685665 0.303290
0.843747 0.689791 0.307416
0.893154 0.693916 0.311541
0.116829 0.688379 0.259717
0.166236 0.692505 0.263843
0.215643 0.696631 0.267968
0.265050 0.700757 0.272094
0.314457 0.704882 0.276220
0.363864 0.709008 0.280346
0.413271 0.713134 0.284471
0.462678 0.717260 0.288597
0.512085 0.721385 0.292723
0.561492 0.725511 0.296849
0.610899 0.729637 0.300974
0.660306 0.733763 0.305100
0.709713 0.737888 0.309226
0.759121 0.742014 0.313352
0.808528 0.746140 0.317478
0.857935 0.750266 0.321603
0.907342 0.754392 0.325729
0.131017 0.748855 0.273905
0.180424 0.752980 0.278030
0.229831 0.757106 0.282156
0.279238 0.761232 0.286282
0.328645 0.765358 0.290408
0.378052 0.769483 0.294533
0.427459 0.773609 0.298659
0.476866 0.777735 0.302785
0.526273 0.781861 0.306911
0.575680 0.785986 0.311036
0.625087 0.790112 0.315162
0.674494 0.794238 0.319288
0.723901 0.798364 0.323414
0.773308 0.802490 0.327540
0.822715 0.806615 0.331665
0.872122 0.810741 0.335791
0.921529 0.814867 0.339917
0.145205 0.809330 0.288092
0.194612 0.813456 0.292218
0.244019 0.817581 0.296344
0.293426 0.821707 0.300470
0.342833 0.825833 0.304595
0.392240 0.829959 0.308721
0.441647 0.834084 0.312847
0.491054 0.838210 0.316973
0.540461 0.842336 0.321098
0.589868 0.846462 0.325224
0.639275 0.850588 0.329350
0.688682 0.854713 0.333476
0.738089 0.858839 0.337602
0.787496 0.862965 0.341727
0.836903 0.867091 0.345853
0.886310 0.871216 0.349979
0.935717 0.875342 0.354105
0.159393 0.869805 0.302280
0.208800 0.873931 0.306406
0.258207 0.878057 0.310532
0.307614 0.882182 0.314657
0.357021 0.886308 0.318783
0.406428 0.890434 0.322909
0.455835 0.894560 0.327035
0.505242 0.898685 0.331160
0.554649 0.902811 0.335286
0.604056 0.906937 0.339412
0.653463 0.911063 0.343538
0.702870 0.915189 0.347664
0.752277 0.919314 0.351789
0.801684 0.923440 0.355915
0.851091 0.927566 0.360041
0.900498 0.931692 0.364167
0.949905 0.935817 0.368292
0.173580 0.930280 0.316468
0.222987 0.934406 0.320594
0.272394 0.938532 0.324719
0.321801 0.942658 0.328845
0.371208 0.946783 0.332971
0.420615 0.950909 0.337097
0.470022 0.955035 0.341222
0.519430 0.959161 0.345348
0.568837 0.963287 0.349474
0.618244 0.967412 0.353600
0.667651 0.970000 0.357726
0.717058 0.970000 0.361851
0.766465 0.970000 0.365977
0.815872 0.970000 0.370103
0.865279 0.970000 0.374229
0.914686 0.970000 0.378354
0.964093 0.970000 0.382480
0.000000 0.000000 0.138221
0.000000 0.000000 0.142346
0.046853 0.000000 0.146472
0.096260 0.000000 0.150598
0.145667 0.000000 0.154724
0.195074 0.000000 0.158849
0.244481 0.000000 0.162975
0.293888 0.000000 0.167101
0.343295 0.000000 0.171227
0.392702 0.001271 0.175352
0.442109 0.005397 0.179478
0.491517 0.009523 0.183604
0.540924 0.013649 0.187730
0.590331 0.017774 0.191856
0.639738 0.021900 0.195981
0.689145 0.026026 0.200107
0.738552 0.030152 0.204233
0.000000 0.024615 0.152408
0.011634 0.028740 0.156534
