backend/luts/fuji_3510.cube
# Fuji 3510 inspired LUT
TITLE "Fuji 3510"
LUT_3D_SIZE 9
0.000000 0.000000 0.000000
0.042463 0.000000 0.000201
0.141277 0.000000 0.008452
0.240091 0.000000 0.016704
0.338905 0.000000 0.024955
0.437719 0.001007 0.033207
0.536533 0.009258 0.041458
0.635347 0.017510 0.049710
0.734161 0.025761 0.057961
0.000000 0.080700 0.020325
0.070839 0.088951 0.028576
0.169653 0.097203 0.036828
0.268467 0.105454 0.045079
0.367281 0.113706 0.053331
0.466095 0.121957 0.061582
0.564909 0.130209 0.069834
0.663723 0.138460 0.078085
0.762537 0.146712 0.086337
0.000400 0.201650 0.048700
0.099214 0.209902 0.056952
0.198028 0.218153 0.065203
0.296842 0.226405 0.073455
0.395656 0.234656 0.081706
0.494470 0.242908 0.089958
0.593284 0.251159 0.098209
0.692098 0.259411 0.106461
0.790913 0.267663 0.114713
0.028776 0.322601 0.077076
0.127590 0.330852 0.085327
0.226404 0.339104 0.093579
0.325218 0.347355 0.101830
0.424032 0.355607 0.110082
0.522846 0.363858 0.118333
0.621660 0.372110 0.126585
0.720474 0.380362 0.134837
0.819288 0.388613 0.143088
0.057151 0.443551 0.105451
0.155965 0.451803 0.113703
0.254779 0.460054 0.121954
0.353593 0.468306 0.130206
0.452407 0.476557 0.138457
0.551222 0.484809 0.146709
0.650036 0.493061 0.154961
0.748850 0.501312 0.163212
0.847664 0.509564 0.171464
0.085527 0.564502 0.133827
0.184341 0.572753 0.142078
0.283155 0.581005 0.150330
0.381969 0.589257 0.158582
0.480783 0.597508 0.166833
0.579597 0.605760 0.175085
0.678411 0.614011 0.183336
0.777225 0.622263 0.191588
0.876039 0.630514 0.199839
0.113902 0.685452 0.162202
0.212716 0.693704 0.170454
0.311531 0.701956 0.178706
0.410345 0.710207 0.186957
0.509159 0.718459 0.195209
0.607973 0.726710 0.203460
0.706787 0.734962 0.211712
0.805601 0.743213 0.219963
0.904415 0.751465 0.228215
0.142278 0.806403 0.190578
0.241092 0.814655 0.198830
0.339906 0.822906 0.207081
0.438720 0.831158 0.215333
0.537534 0.839409 0.223584
0.636348 0.847661 0.231836
0.735162 0.855912 0.240087
0.833976 0.864164 0.248339
0.932790 0.872415 0.256590
0.170654 0.927354 0.218954
0.269468 0.935605 0.227205
0.368282 0.943857 0.235457
0.467096 0.952108 0.243708
0.565910 0.960360 0.251960
0.664724 0.968611 0.260211
0.763538 0.970000 0.268463
0.862352 0.970000 0.276714
0.961166 0.970000 0.284966
0.000000 0.000000 0.089463
0.045390 0.000000 0.097715
0.144204 0.000000 0.105966
0.243018 0.000000 0.114218
0.341832 0.000000 0.122470
0.440646 0.003934 0.130721
0.539460 0.012185 0.138973
0.638274 0.020437 0.147224
0.737088 0.028688 0.155476
0.000000 0.083626 0.117839
0.073765 0.091878 0.126090
0.172580 0.100130 0.134342
0.271394 0.108381 0.142594
0.370208 0.116633 0.150845
0.469022 0.124884 0.159097
0.567836 0.133136 0.167348
0.666650 0.141387 0.175600
0.765464 0.149639 0.183851
0.003327 0.204577 0.146215
0.102141 0.212829 0.154466
0.200955 0.221080 0.162718
0.299769 0.229332 0.170969
0.398583 0.237583 0.179221
0.497397 0.245835 0.187472
0.596211 0.254086 0.195724
0.695025 0.262338 0.203975
0.793839 0.270589 0.212227
0.031703 0.325528 0.174590
0.130517 0.333779 0.182842
0.229331 0.342031 0.191093
0.328145 0.350282 0.199345
0.426959 0.358534 0.207596
0.525773 0.366785 0.215848
0.624587 0.375037 0.224099
0.723401 0.383288 0.232351
0.822215 0.391540 0.240602
0.060078 0.446478 0.202966
0.158892 0.454730 0.211217
0.257706 0.462981 0.219469
0.356520 0.471233 0.227720
0.455334 0.479484 0.235972
0.554148 0.487736 0.244223
0.652962 0.495987 0.252475
0.751776 0.504239 0.260726
0.850590 0.512490 0.268978
0.088454 0.567429 0.231341
0.187268 0.575680 0.239593
0.286082 0.583932 0.247844
0.384896 0.592183 0.256096
0.483710 0.600435 0.264347
0.582524 0.608686 0.272599
0.681338 0.616938 0.280850
0.780152 0.625189 0.289102
0.878966 0.633441 0.297353
0.116829 0.688379 0.259717
0.215643 0.696631 0.267968
0.314457 0.704882 0.276220
0.413271 0.713134 0.284471
0.512085 0.721385 0.292723
0.610899 0.729637 0.300974
0.709713 0.737888 0.309226
0.808528 0.746140 0.317478
0.907342 0.754392 0.325729
0.145205 0.809330 0.288092
0.244019 0.817581 0.296344
0.342833 0.825833 0.304595
0.441647 0.834084 0.312847
0.540461 0.842336 0.321098
0.639275 0.850588 0.329350
0.738089 0.858839 0.337602
0.836903 0.867091 0.345853
0.935717 0.875342 0.354105
0.173580 0.930280 0.316468
0.272394 0.938532 0.324719
0.371208 0.946783 0.332971
0.470022 0.955035 0.341222
0.568837 0.963287 0.349474
0.667651 0.970000 0.357726
0.766465 0.970000 0.365977
0.865279 0.970000 0.374229
0.964093 0.970000 0.382480
0.000000 0.000000 0.186978
0.048317 0.000000 0.195229
0.147131 0.000000 0.203481
0.245945 0.000000 0.211732
0.344759 0.000000 0.219984
0.443573 0.006860 0.228235
0.542387 0.015112 0.236487
0.641201 0.023363 0.244738
0.740015 0.031615 0.252990
0.000000 0.086553 0.215353
0.076692 0.094805 0.223605
0.175506 0.103056 0.231856
0.274320 0.111308 0.240108
0.373134 0.119559 0.248359
0.471948 0.127811 0.256611
0.570762 0.136062 0.264862
0.669577 0.144314 0.273114
0.768391 0.152566 0.281366
0.006254 0.207504 0.243729
0.105068 0.215755 0.251980
0.203882 0.224007 0.260232
0.302696 0.232258 0.268483
0.401510 0.240510 0.276735
0.500324 0.248762 0.284987
0.599138 0.257013 0.293238
0.697952 0.265265 0.301490
0.796766 0.273516 0.309741
0.034629 0.328454 0.272104
0.133443 0.336706 0.280356
0.232257 0.344957 0.288607
0.331071 0.353209 0.296859
0.429886 0.361461 0.305111
0.528700 0.369712 0.313362
0.627514 0.377964 0.321614
0.726328 0.386215 0.329865
0.825142 0.394467 0.338117
0.063005 0.449405 0.300480
0.161819 0.457656 0.308731
0.260633 0.465908 0.316983
0.359447 0.474160 0.325235
0.458261 0.482411 0.333486
0.557075 0.490663 0.341738
0.655889 0.498914 0.349989
0.754703 0.507166 0.358241
0.853517 0.515417 0.366492
0.091381 0.570356 0.328856
0.190195 0.578607 0.337107
0.289009 0.586859 0.345359
0.387823 0.595110 0.353610
0.486637 0.603362 0.361862
0.585451 0.611613 0.370113
0.684265 0.619865 0.378365
0.783079 0.628116 0.386616
0.881893 0.636368 0.394868
0.119756 0.691306 0.357231
0.218570 0.699558 0.365483
0.317384 0.707809 0.373734
0.416198 0.716061 0.381986
0.515012 0.724312 0.390237
0.613826 0.732564 0.398489
0.712640 0.740815 0.406740
0.811454 0.749067 0.414992
0.910268 0.757318 0.423243
0.148132 0.812257 0.385607
0.246946 0.820508 0.393858
0.345760 0.828760 0.402110
0.444574 0.837011 0.410361
0.543388 0.845263 0.418613
0.642202 0.853514 0.426864
0.741016 0.861766 0.435116
0.839830 0.870017 0.443367
0.938644 0.878269 0.451619
0.176507 0.933207 0.413982
0.275321 0.941459 0.422234
0.374135 0.949710 0.430485
0.472949 0.957962 0.438737
0.571763 0.966213 0.446988
0.670577 0.970000 0.455240
0.769391 0.970000 0.463491
0.868205 0.970000 0.471743
0.967019 0.970000 0.479994
0.000000 0.000000 0.284492
0.051244 0.000000 0.292744
0.150058 0.000000 0.300995
0.248872 0.000000 0.309247
0.347686 0.001536 0.317498
0.446500 0.009787 0.325750
0.545314 0.018039 0.334001
0.644128 0.026290 0.342253
0.742942 0.034542 0.350504
0.000000 0.089480 0.312868
0.079619 0.097732 0.321119
0.178433 0.105983 0.329371
0.277247 0.114235 0.337622
0.376061 0.122486 0.345874
0.474875 0.130738 0.354125
0.573689 0.138989 0.362377
0.672503 0.147241 0.370628
0.771317 0.155492 0.378880
0.009181 0.210431 0.341243
0.107995 0.218682 0.349495
0.206809 0.226934 0.357746
0.305623 0.235185 0.365998
0.404437 0.243437 0.374249
0.503251 0.251688 0.382501
0.602065 0.259940 0.390752
0.700879 0.268191 0.399004
0.799693 0.276443 0.407255
0.037556 0.331381 0.369619
0.136370 0.339633 0.377870
0.235184 0.347884 0.386122
0.333998 0.356136 0.394373
0.432812 0.364387 0.402625
0.531626 0.372639 0.410876
0.630440 0.380890 0.419128
0.729254 0.389142 0.427379
0.828068 0.397393 0.435631
0.065932 0.452332 0.397994
0.164746 0.460583 0.406246
0.263560 0.468835 0.414497
0.362374 0.477086 0.422749
0.461188 0.485338 0.431000
0.560002 0.493589 0.439252
0.658816 0.501841 0.447503
0.757630 0.510093 0.455755
0.856444 0.518344 0.464007
0.094307 0.573282 0.426370
0.193121 0.581534 0.434621
0.291935 0.589785 0.442873
0.390749 0.598037 0.451124
0.489563 0.606288 0.459376
0.588377 0.614540 0.467627
0.687192 0.622792 0.475879
0.786006 0.631043 0.484131
0.884820 0.639295 0.492382
0.122683 0.694233 0.454745
0.221497 0.702484 0.462997
0.320311 0.710736 0.471248
0.419125 0.718987 0.479500
0.517939 0.727239 0.487752
0.616753 0.735491 0.496003
0.715567 0.743742 0.504255
0.814381 0.751994 0.512506
0.913195 0.760245 0.520758
0.151058 0.815183 0.483121
0.249872 0.823435 0.491372
0.348687 0.831687 0.499624
0.447501 0.839938 0.507876
0.546315 0.848190 0.516127
0.645129 0.856441 0.524379
0.743943 0.864693 0.532630
0.842757 0.872944 0.540882
0.941571 0.881196 0.549133
0.179434 0.936134 0.511496
0.278248 0.944386 0.519748
0.377062 0.952637 0.528000
0.475876 0.960889 0.536251
0.574690 0.969140 0.544503
0.673504 0.970000 0.552754
0.772318 0.970000 0.561006
0.871132 0.970000 0.569257
0.969946 0.970000 0.577509
0.000000 0.000000 0.382006
0.054170 0.000000 0.390258
0.152984 0.000000 0.398509
0.251798 0.000000 0.406761
0.350612 0.004462 0.415012
0.449427 0.012714 0.423264
0.548241 0.020966 0.431516
0.647055 0.029217 0.439767
0.745869 0.037469 0.448019
0.000000 0.092407 0.410382
0.082546 0.100658 0.418633
0.181360 0.108910 0.426885
0.280174 0.117161 0.435136
0.378988 0.125413 0.443388
0.477802 0.133665 0.451640
0.576616 0.141916 0.459891
0.675430 0.150168 0.468143
0.774244 0.158419 0.476394
0.012107 0.213357 0.438757
0.110921 0.221609 0.447009
0.209736 0.229861 0.455261
0.308550 0.238112 0.463512
0.407364 0.246364 0.471764
0.506178 0.254615 0.480015
0.604992 0.262867 0.488267
0.703806 0.271118 0.496518
0.802620 0.279370 0.504770
0.040483 0.334308 0.467133
0.139297 0.342560 0.475385
0.238111 0.350811 0.483636
0.336925 0.359063 0.491888
0.435739 0.367314 0.500139
0.534553 0.375566 0.508391
0.633367 0.383817 0.516642
0.732181 0.392069 0.524894
0.830995 0.400320 0.533145
0.068859 0.455259 0.495509
0.167673 0.463510 0.503760
0.266487 0.471762 0.512012
0.365301 0.480013 0.520263
0.464115 0.488265 0.528515
0.562929 0.496516 0.536766
0.661743 0.504768 0.545018
0.760557 0.513019 0.553269
0.859371 0.521271 0.561521
0.097234 0.576209 0.523884
0.196048 0.584461 0.532136
0.294862 0.592712 0.540387
0.393676 0.600964 0.548639
0.492490 0.609215 0.556890
0.591304 0.617467 0.565142
0.690118 0.625718 0.573393
0.788932 0.633970 0.581645
0.887746 0.642221 0.589896
0.125610 0.697160 0.552260
0.224424 0.705411 0.560511
0.323238 0.713663 0.568763
0.422052 0.721914 0.577014
0.520866 0.730166 0.585266
0.619680 0.738417 0.593517
0.718494 0.746669 0.601769
0.817308 0.754920 0.610020
0.916122 0.763172 0.618272
0.153985 0.818110 0.580635
0.252799 0.826362 0.588887
0.351613 0.834613 0.597138
0.450427 0.842865 0.605390
0.549241 0.851116 0.613641
0.648055 0.859368 0.621893
0.746869 0.867619 0.630144
0.845684 0.875871 0.638396
0.944498 0.884123 0.646648
0.182361 0.939061 0.609011
0.281175 0.947312 0.617262
0.379989 0.955564 0.625514
0.478803 0.963815 0.633765
0.577617 0.970000 0.642017
0.676431 0.970000 0.650268
0.775245 0.970000 0.658520
0.874059 0.970000 0.666772
0.970000 0.970000 0.675023
0.000000 0.000000 0.479521
0.057097 0.000000 0.487772
0.155911 0.000000 0.496024
0.254725 0.000000 0.504275
0.353539 0.007389 0.512527
0.452353 0.015641 0.520778
0.551167 0.023892 0.529030
0.649981 0.032144 0.537281
0.748795 0.040395 0.545533
0.000000 0.095334 0.507896
0.085473 0.103585 0.516148
0.184287 0.111837 0.524399
0.283101 0.120088 0.532651
0.381915 0.128340 0.540902
0.480729 0.136591 0.549154
0.579543 0.144843 0.557405
0.678357 0.153094 0.565657
0.777171 0.161346 0.573908
0.015034 0.216284 0.536272
0.113848 0.224536 0.544523
0.212662 0.232787 0.552775
0.311476 0.241039 0.561026
0.410290 0.249290 0.569278
0.509104 0.257542 0.577529
0.607918 0.265793 0.585781
0.706733 0.274045 0.594033
0.805547 0.282297 0.602284
0.043410 0.337235 0.564647
0.142224 0.345486 0.572899
0.241038 0.353738 0.581150
0.339852 0.361989 0.589402
0.438666 0.370241 0.597653
0.537480 0.378492 0.605905
0.636294 0.386744 0.614157
0.735108 0.394996 0.622408
0.833922 0.403247 0.630660
0.071785 0.458185 0.593023
0.170599 0.466437 0.601274
0.269413 0.474688 0.609526
0.368227 0.482940 0.617777
0.467042 0.491192 0.626029
0.565856 0.499443 0.634281
0.664670 0.507695 0.642532
0.763484 0.515946 0.650784
0.862298 0.524198 0.659035
0.100161 0.579136 0.621398
0.198975 0.587387 0.629650
0.297789 0.595639 0.637902
0.396603 0.603891 0.646153
0.495417 0.612142 0.654405
0.594231 0.620394 0.662656
0.693045 0.628645 0.670908
0.791859 0.636897 0.679159
0.890673 0.645148 0.687411
0.128536 0.700086 0.649774
0.227351 0.708338 0.658026
0.326165 0.716590 0.666277
0.424979 0.724841 0.674529
0.523793 0.733093 0.682780
0.622607 0.741344 0.691032
0.721421 0.749596 0.699283
0.820235 0.757847 0.707535
0.919049 0.766099 0.715786
0.156912 0.821037 0.678150
0.255726 0.829289 0.686401
0.354540 0.837540 0.694653
0.453354 0.845792 0.702904
0.552168 0.854043 0.711156
0.650982 0.862295 0.719407
0.749796 0.870546 0.727659
0.848610 0.878798 0.735910
0.947424 0.887049 0.744162
0.185288 0.941988 0.706525
0.284102 0.950239 0.714777
0.382916 0.958491 0.723028
0.481730 0.966742 0.731280
0.580544 0.970000 0.739531
0.679358 0.970000 0.747783
0.778172 0.970000 0.756034
0.876986 0.970000 0.764286
0.970000 0.970000 0.772537
0.000000 0.000000 0.577035
0.060024 0.000000 0.585286
0.158838 0.000000 0.593538
0.257652 0.002065 0.601790
0.356466 0.010316 0.610041
0.455280 0.018568 0.618293
0.554094 0.026819 0.626544
0.652908 0.035071 0.634796
0.751722 0.043322 0.643047
0.000000 0.098260 0.605410
0.088400 0.106512 0.613662
0.187214 0.114764 0.621914
0.286028 0.123015 0.630165
0.384842 0.131267 0.638417
0.483656 0.139518 0.646668
0.582470 0.147770 0.654920
0.681284 0.156021 0.663171
0.780098 0.164273 0.671423
0.017961 0.219211 0.633786
0.116775 0.227463 0.642038
0.215589 0.235714 0.650289
0.314403 0.243966 0.658541
0.413217 0.252217 0.666792
0.512031 0.260469 0.675044
0.610845 0.268720 0.683295
0.709659 0.276972 0.691547
0.808473 0.285223 0.699798
0.046337 0.340162 0.662162
0.145151 0.348413 0.670413
0.243965 0.356665 0.678665
0.342779 0.364916 0.686916
0.441593 0.373168 0.695168
0.540407 0.381419 0.703419
0.639221 0.389671 0.711671
0.738035 0.397922 0.719922
0.836849 0.406174 0.728174
0.074712 0.461112 0.690537
0.173526 0.469364 0.698789
0.272340 0.477615 0.707040
0.371154 0.485867 0.715292
0.469968 0.494118 0.723543
0.568782 0.502370 0.731795
0.667596 0.510621 0.740046
0.766410 0.518873 0.748298
0.865224 0.527124 0.756549
0.103088 0.582063 0.718913
0.201902 0.590314 0.727164
0.300716 0.598566 0.735416
0.399530 0.606817 0.743667
0.498344 0.615069 0.751919
0.597158 0.623320 0.760170
0.695972 0.631572 0.768422
0.794786 0.639823 0.776673
0.893600 0.648075 0.784925
0.131463 0.703013 0.747288
0.230277 0.711265 0.755540
0.329091 0.719516 0.763791
0.427905 0.727768 0.772043
0.526719 0.736019 0.780294
0.625533 0.744271 0.788546
0.724348 0.752523 0.796798
0.823162 0.760774 0.805049
0.921976 0.769026 0.813301
0.159839 0.823964 0.775664
0.258653 0.832215 0.783915
0.357467 0.840467 0.792167
0.456281 0.848718 0.800418
0.555095 0.856970 0.808670
0.653909 0.865222 0.816922
0.752723 0.873473 0.825173
0.851537 0.881725 0.833425
0.950351 0.889976 0.841676
0.188214 0.944914 0.804039
0.287028 0.953166 0.812291
0.385842 0.961417 0.820542
0.484657 0.969669 0.828794
0.583471 0.970000 0.837046
0.682285 0.970000 0.845297
0.781099 0.970000 0.853549
0.879913 0.970000 0.861800
0.970000 0.970000 0.870052
0.000000 0.000000 0.674549
0.062951 0.000000 0.682801
0.161765 0.000000 0.691052
0.260579 0.004991 0.699304
0.359393 0.013243 0.707555
0.458207 0.021494 0.715807
0.557021 0.029746 0.724058
0.655835 0.037998 0.732310
0.754649 0.046249 0.740562
0.000000 0.101187 0.702925
0.091326 0.109439 0.711176
0.190140 0.117690 0.719428
0.288954 0.125942 0.727679
0.387768 0.134193 0.735931
0.486582 0.142445 0.744182
0.585397 0.150697 0.752434
0.684211 0.158948 0.760686
0.783025 0.167200 0.768937
0.020888 0.222138 0.731300
0.119702 0.230389 0.739552
0.218516 0.238641 0.747803
0.317330 0.246892 0.756055
0.416144 0.255144 0.764307
0.514958 0.263396 0.772558
0.613772 0.271647 0.780810
0.712586 0.279899 0.789061
0.811400 0.288150 0.797313
0.049263 0.343088 0.759676
0.148077 0.351340 0.767927
0.246891 0.359591 0.776179
0.345706 0.367843 0.784431
0.444520 0.376095 0.792682
0.543334 0.384346 0.800934
0.642148 0.392598 0.809185
0.740962 0.400849 0.817437
0.839776 0.409101 0.825688
0.077639 0.464039 0.788051
0.176453 0.472291 0.796303
0.275267 0.480542 0.804555
0.374081 0.488794 0.812806
0.472895 0.497045 0.821058
0.571709 0.505297 0.829309
0.670523 0.513548 0.837561
0.769337 0.521800 0.845812
0.868151 0.530051 0.854064
0.106015 0.584990 0.816427
0.204829 0.593241 0.824679
0.303643 0.601493 0.832930
0.402457 0.609744 0.841182
0.501271 0.617996 0.849433
0.600085 0.626247 0.857685
0.698899 0.634499 0.865936
0.797713 0.642750 0.874188
0.896527 0.651002 0.882439
0.134390 0.705940 0.844803
0.233204 0.714192 0.853054
0.332018 0.722443 0.861306
0.430832 0.730695 0.869557
0.529646 0.738946 0.877809
0.628460 0.747198 0.886060
0.727274 0.755449 0.894312
0.826088 0.763701 0.902563
0.924902 0.771952 0.910815
0.162766 0.826891 0.873178
0.261580 0.835142 0.881430
0.360394 0.843394 0.889681
0.459208 0.851645 0.897933
0.558022 0.859897 0.906184
0.656836 0.868148 0.914436
0.755650 0.876400 0.922687
0.854464 0.884651 0.930939
0.953278 0.892903 0.939190
0.191141 0.947841 0.901554
0.289955 0.956093 0.909805
0.388769 0.964344 0.918057
0.487583 0.970000 0.926308
0.586397 0.970000 0.934560
0.685211 0.970000 0.942811
0.784025 0.970000 0.951063
0.882839 0.970000 0.959314
0.970000 0.970000 0.967566
0.000000 0.000000 0.764014
0.065878 0.000000 0.772265
0.164692 0.000000 0.780517
0.263506 0.007918 0.788768
0.362320 0.016170 0.797020
0.461134 0.024421 0.805271
0.559948 0.032673 0.813523
0.658762 0.040924 0.821774
0.757576 0.049176 0.830026
0.000000 0.104114 0.792389
0.094253 0.112366 0.800641
0.193067 0.120617 0.808892
0.291881 0.128869 0.817144
0.390695 0.137120 0.825395
0.489509 0.145372 0.833647
0.588323 0.153623 0.841898
0.687137 0.161875 0.850150
0.785951 0.170126 0.858401
0.023815 0.225065 0.820765
0.122629 0.233316 0.829016
0.221443 0.241568 0.837268
0.320257 0.249819 0.845519
0.419071 0.258071 0.853771
0.517885 0.266322 0.862022
0.616699 0.274574 0.870274
0.715513 0.282825 0.878525
0.814327 0.291077 0.886777
0.052190 0.346015 0.849140
0.151004 0.354267 0.857392
0.249818 0.362518 0.865643
0.348632 0.370770 0.873895
0.447446 0.379021 0.882146
0.546260 0.387273 0.890398
0.645074 0.395524 0.898649
0.743888 0.403776 0.906901
0.842703 0.412028 0.915153
0.080566 0.466966 0.877516
0.179380 0.475217 0.885767
0.278194 0.483469 0.894019
0.377008 0.491720 0.902270
0.475822 0.499972 0.910522
0.574636 0.508223 0.918773
0.673450 0.516475 0.927025
0.772264 0.524727 0.935277
0.871078 0.532978 0.943528
0.108941 0.587916 0.905891
0.207755 0.596168 0.914143
0.306569 0.604419 0.922394
0.405383 0.612671 0.930646
0.504197 0.620923 0.938897
0.603012 0.629174 0.947149
0.701826 0.637426 0.955401
0.800640 0.645677 0.963652
0.899454 0.653929 0.970000
0.137317 0.708867 0.934267
0.236131 0.717118 0.942518
0.334945 0.725370 0.950770
0.433759 0.733622 0.959022
0.532573 0.741873 0.967273
0.631387 0.750125 0.970000
0.730201 0.758376 0.970000
0.829015 0.766628 0.970000
0.927829 0.774879 0.970000
0.165692 0.829817 0.962642
0.264507 0.838069 0.970000
0.363321 0.846321 0.970000
0.462135 0.854572 0.970000
0.560949 0.862824 0.970000
0.659763 0.871075 0.970000
0.758577 0.879327 0.970000
0.857391 0.887578 0.970000
0.956205 0.895830 0.970000
0.194068 0.950768 0.970000
0.292882 0.959020 0.970000
0.391696 0.967271 0.970000
0.490510 0.970000 0.970000
0.589324 0.970000 0.970000
0.688138 0.970000 0.970000
0.786952 0.970000 0.970000
0.885766 0.970000 0.970000
0.970000 0.970000 0.970000
