backend/luts/fuji_3510.cube
# Fuji 3510 inspired LUT
TITLE "Fuji 3510"
LUT_3D_SIZE 5
0.000000 0.000000 0.000000
0.141277 0.000000 0.008452
0.338905 0.000000 0.024955
0.536533 0.009258 0.041458
0.734161 0.025761 0.057961
0.000400 0.201650 0.048700
0.198028 0.218153 0.065203
0.395656 0.234656 0.081706
0.593284 0.251159 0.098209
0.790913 0.267663 0.114713
0.057151 0.443551 0.105451
0.254779 0.460054 0.121954
0.452407 0.476557 0.138457
0.650036 0.493061 0.154961
0.847664 0.509564 0.171464
0.113902 0.685452 0.162202
0.311531 0.701956 0.178706
0.509159 0.718459 0.195209
0.706787 0.734962 0.211712
0.904415 0.751465 0.228215
0.170654 0.927354 0.218954
0.368282 0.943857 0.235457
0.565910 0.960360 0.251960
0.763538 0.970000 0.268463
0.961166 0.970000 0.284966
0.000000 0.000000 0.186978
0.147131 0.000000 0.203481
0.344759 0.000000 0.219984
0.542387 0.015112 0.236487
0.740015 0.031615 0.252990
0.006254 0.207504 0.243729
0.203882 0.224007 0.260232
0.401510 0.240510 0.276735
0.599138 0.257013 0.293238
0.796766 0.273516 0.309741
0.063005 0.449405 0.300480
0.260633 0.465908 0.316983
0.458261 0.482411 0.333486
0.655889 0.498914 0.349989
0.853517 0.515417 0.366492
0.119756 0.691306 0.357231
0.317384 0.707809 0.373734
0.515012 0.724312 0.390237
0.712640 0.740815 0.406740
0.910268 0.757318 0.423243
0.176507 0.933207 0.413982
0.374135 0.949710 0.430485
0.571763 0.966213 0.446988
0.769391 0.970000 0.463491
0.967019 0.970000 0.479994
0.000000 0.000000 0.382006
0.152984 0.000000 0.398509
0.350612 0.004462 0.415012
0.548241 0.020966 0.431516
0.745869 0.037469 0.448019
0.012107 0.213357 0.438757
0.209736 0.229861 0.455261
0.407364 0.246364 0.471764
0.604992 0.262867 0.488267
0.802620 0.279370 0.504770
0.068859 0.455259 0.495509
0.266487 0.471762 0.512012
0.464115 0.488265 0.528515
0.661743 0.504768 0.545018
0.859371 0.521271 0.561521
0.125610 0.697160 0.552260
0.323238 0.713663 0.568763
0.520866 0.730166 0.585266
0.718494 0.746669 0.601769
0.916122 0.763172 0.618272
0.182361 0.939061 0.609011
0.379989 0.955564 0.625514
0.577617 0.970000 0.642017
0.775245 0.970000 0.658520
0.970000 0.970000 0.675023
0.000000 0.000000 0.577035
0.158838 0.000000 0.593538
0.356466 0.010316 0.610041
0.554094 0.026819 0.626544
0.751722 0.043322 0.643047
0.017961 0.219211 0.633786
0.215589 0.235714 0.650289
0.413217 0.252217 0.666792
0.610845 0.268720 0.683295
0.808473 0.285223 0.699798
0.074712 0.461112 0.690537
0.272340 0.477615 0.707040
0.469968 0.494118 0.723543
0.667596 0.510621 0.740046
0.865224 0.527124 0.756549
0.131463 0.703013 0.747288
0.329091 0.719516 0.763791
0.526719 0.736019 0.780294
0.724348 0.752523 0.796798
0.921976 0.769026 0.813301
0.188214 0.944914 0.804039
0.385842 0.961417 0.820542
0.583471 0.970000 0.837046
0.781099 0.970000 0.853549
0.970000 0.970000 0.870052
0.000000 0.000000 0.764014
0.164692 0.000000 0.780517
0.362320 0.016170 0.797020
0.559948 0.032673 0.813523
0.757576 0.049176 0.830026
0.023815 0.225065 0.820765
0.221443 0.241568 0.837268
0.419071 0.258071 0.853771
0.616699 0.274574 0.870274
0.814327 0.291077 0.886777
0.080566 0.466966 0.877516
0.278194 0.483469 0.894019
0.475822 0.499972 0.910522
0.673450 0.516475 0.927025
0.871078 0.532978 0.943528
0.137317 0.708867 0.934267
0.334945 0.725370 0.950770
0.532573 0.741873 0.967273
0.730201 0.758376 0.970000
0.927829 0.774879 0.970000
0.194068 0.950768 0.970000
0.391696 0.967271 0.970000
0.589324 0.970000 0.970000
0.786952 0.970000 0.970000
0.970000 0.970000 0.970000
