backend/luts/kodak_2383.cube
# Kodak 2383 D55 inspired LUT
TITLE "Kodak 2383 D55"
LUT_3D_SIZE 9
0.001690 0.001792 0.009308
0.053597 0.001863 0.008538
0.164039 0.001936 0.007801
0.314058 0.002010 0.007095
0.484695 0.002085 0.006421
0.656994 0.002161 0.005781
0.811995 0.002239 0.005172
0.930742 0.002319 0.004597
0.970000 0.002399 0.004055
0.002451 0.054246 0.006846
0.057223 0.054602 0.006184
0.169726 0.054960 0.005555
0.321003 0.055318 0.004959
0.492096 0.055678 0.004396
0.664046 0.056038 0.003865
0.817896 0.056400 0.003368
0.934688 0.056762 0.002905
0.970000 0.056978 0.002646
0.003350 0.165267 0.004750
0.060952 0.165829 0.004199
0.175483 0.166392 0.003681
0.327984 0.166955 0.003196
0.499498 0.167519 0.002744
0.669458 0.167648 0.002646
0.820666 0.167648 0.002646
0.935373 0.167648 0.002646
0.970000 0.167648 0.002646
0.004384 0.315812 0.003028
0.064627 0.316406 0.002646
0.179334 0.316406 0.002646
0.330542 0.316406 0.002646
0.500000 0.316406 0.002646
0.669458 0.316406 0.002646
0.820666 0.316406 0.002646
0.935373 0.316406 0.002646
0.970000 0.316406 0.002646
0.004672 0.485002 0.002646
0.064627 0.485002 0.002646
0.179334 0.485002 0.002646
0.330542 0.485002 0.002646
0.500000 0.485002 0.002646
0.669458 0.485002 0.002646
0.821773 0.485529 0.002626
0.938384 0.487179 0.002562
0.970000 0.488829 0.002500
0.004672 0.655185 0.002646
0.064627 0.655185 0.002646
0.179334 0.655185 0.002646
0.333394 0.656263 0.002602
0.507409 0.657838 0.002539
0.680600 0.659413 0.002477
0.833283 0.660985 0.002415
0.945775 0.662556 0.002354
0.970000 0.664126 0.002294
0.005406 0.810096 0.002579
0.069423 0.811422 0.002516
0.190017 0.812745 0.002454
0.347506 0.814064 0.002393
0.522207 0.815380 0.002332
0.694437 0.816693 0.002273
0.844511 0.818003 0.002214
0.952747 0.819309 0.002155
0.970000 0.820612 0.002098
0.008112 0.931274 0.002371
0.077618 0.932159 0.002311
0.202055 0.933040 0.002251
0.361740 0.933915 0.002192
0.536988 0.934786 0.002134
0.708118 0.935651 0.002077
0.855446 0.936512 0.002021
0.959288 0.937367 0.001965
0.970000 0.938218 0.001910
0.011341 0.970000 0.002171
0.086199 0.970000 0.002113
0.214340 0.970000 0.002056
0.376082 0.970000 0.002000
0.551741 0.970000 0.001945
0.721633 0.970000 0.001890
0.866076 0.970000 0.001836
0.965387 0.970000 0.001783
0.970000 0.970000 0.001731
0.001761 0.001816 0.077686
0.053959 0.001888 0.075619
0.164610 0.001961 0.073575
0.314757 0.002035 0.071556
0.485442 0.002111 0.069560
0.657707 0.002188 0.067589
0.812594 0.002266 0.065643
0.931145 0.002346 0.063721
0.970000 0.002427 0.061823
0.002536 0.054367 0.070827
0.057595 0.054723 0.068840
0.170304 0.055081 0.066878
0.321706 0.055440 0.064940
0.492843 0.055800 0.063027
0.664756 0.056161 0.061139
0.818488 0.056523 0.059276
0.935081 0.056886 0.057438
0.970000 0.056978 0.056978
0.003448 0.165458 0.064241
0.061334 0.166020 0.062337
0.176068 0.166583 0.060458
0.328691 0.167147 0.058604
0.500000 0.167648 0.056978
0.669458 0.167648 0.056978
0.820666 0.167648 0.056978
0.935373 0.167648 0.056978
0.970000 0.167648 0.056978
0.004496 0.316046 0.057935
0.064627 0.316406 0.056978
0.179334 0.316406 0.056978
0.330542 0.316406 0.056978
0.500000 0.316406 0.056978
0.669458 0.316406 0.056978
0.820666 0.316406 0.056978
0.935373 0.316406 0.056978
0.970000 0.316406 0.056978
0.004672 0.485002 0.056978
0.064627 0.485002 0.056978
0.179334 0.485002 0.056978
0.330542 0.485002 0.056978
0.500000 0.485002 0.056978
0.669458 0.485002 0.056978
0.822948 0.486089 0.056798
0.939149 0.487739 0.056526
0.970000 0.489389 0.056254
0.004672 0.655185 0.056978
0.064627 0.655185 0.056978
0.179414 0.655221 0.056971
0.334813 0.656798 0.056699
0.508903 0.658373 0.056427
0.682003 0.659947 0.056156
0.834429 0.661519 0.055885
0.946498 0.663089 0.055615
0.970000 0.664658 0.055345
0.005655 0.810547 0.056600
0.070232 0.811872 0.056328
0.191221 0.813193 0.056057
0.348938 0.814512 0.055786
0.523700 0.815827 0.055516
0.695825 0.817138 0.055247
0.845628 0.818447 0.054978
0.953427 0.819752 0.054710
0.970000 0.821054 0.054442
0.008415 0.931575 0.055688
0.078467 0.932459 0.055418
0.203284 0.933338 0.055149
0.363183 0.934212 0.054880
0.538479 0.935080 0.054612
0.709490 0.935944 0.054345
0.856533 0.936803 0.054078
0.959924 0.937657 0.053812
0.970000 0.938505 0.053546
0.011695 0.970000 0.054783
0.087086 0.970000 0.054515
0.215594 0.970000 0.054248
0.377535 0.970000 0.053981
0.553228 0.970000 0.053715
0.722988 0.970000 0.053449
0.867132 0.970000 0.053184
0.965977 0.970000 0.052920
0.970000 0.970000 0.052656
0.001833 0.001840 0.197532
0.054321 0.001912 0.194549
0.165182 0.001986 0.191583
0.315457 0.002060 0.188632
0.486189 0.002137 0.185697
0.658420 0.002214 0.182778
0.813192 0.002293 0.179875
0.931547 0.002373 0.176989
0.970000 0.002455 0.174120
0.002621 0.054488 0.187561
0.057968 0.054845 0.184632
0.170883 0.055203 0.181719
0.322410 0.055562 0.178823
0.493590 0.055922 0.175942
0.665466 0.056284 0.173079
0.819079 0.056646 0.170232
0.935373 0.056978 0.167648
0.970000 0.056978 0.167648
0.003548 0.165649 0.177772
0.061718 0.166211 0.174898
0.176654 0.166774 0.172041
0.329398 0.167338 0.169200
0.500000 0.167648 0.167648
0.669458 0.167648 0.167648
0.820666 0.167648 0.167648
0.935373 0.167648 0.167648
0.970000 0.167648 0.167648
0.004610 0.316279 0.168171
0.064627 0.316406 0.167648
0.179334 0.316406 0.167648
0.330542 0.316406 0.167648
0.500000 0.316406 0.167648
0.669458 0.316406 0.167648
0.820666 0.316406 0.167648
0.935373 0.316406 0.167648
0.970000 0.316406 0.167648
0.004672 0.485002 0.167648
0.064627 0.485002 0.167648
0.179334 0.485002 0.167648
0.330542 0.485002 0.167648
0.500000 0.485002 0.167648
0.669458 0.485002 0.167648
0.824119 0.486650 0.167225
0.939909 0.488299 0.166803
0.970000 0.489949 0.166380
0.004672 0.655185 0.167648
0.064627 0.655185 0.167648
0.180594 0.655757 0.167494
0.336233 0.657333 0.167071
0.510398 0.658908 0.166649
0.683405 0.660481 0.166227
0.835573 0.662052 0.165805
0.947217 0.663622 0.165383
0.970000 0.665191 0.164962
0.005910 0.810997 0.166917
0.071046 0.812321 0.166495
0.192427 0.813641 0.166073
0.350371 0.814959 0.165651
0.525193 0.816272 0.165230
0.697212 0.817583 0.164809
0.846743 0.818890 0.164388
0.954103 0.820194 0.163968
0.970000 0.821495 0.163548
0.008722 0.931876 0.165498
0.079320 0.932758 0.165077
0.204516 0.933635 0.164656
0.364627 0.934507 0.164235
0.539970 0.935374 0.163815
0.710861 0.936236 0.163396
0.857617 0.937093 0.162977
0.960555 0.937945 0.162558
0.970000 0.938792 0.162139
0.012055 0.970000 0.164082
0.087977 0.970000 0.163663
0.216849 0.970000 0.163243
0.378990 0.970000 0.162824
0.554715 0.970000 0.162405
0.724341 0.970000 0.161987
0.868185 0.970000 0.161569
0.966563 0.970000 0.161152
0.970000 0.970000 0.160735
0.001906 0.001864 0.350987
0.054684 0.001937 0.347472
0.165754 0.002011 0.343965
0.316157 0.002086 0.340465
0.486936 0.002163 0.336973
0.659133 0.002241 0.333488
0.813789 0.002320 0.330012
0.931948 0.002401 0.326544
0.970000 0.002483 0.323085
0.002709 0.054609 0.339193
0.058342 0.054966 0.335703
0.171462 0.055325 0.332222
0.323114 0.055684 0.328749
0.494337 0.056045 0.325284
0.666175 0.056407 0.321827
0.819670 0.056769 0.318380
0.935373 0.056978 0.316406
0.970000 0.056978 0.316406
0.003649 0.165840 0.327486
0.062102 0.166402 0.324024
0.177240 0.166966 0.320571
0.330105 0.167530 0.317127
0.500000 0.167648 0.316406
0.669458 0.167648 0.316406
0.820666 0.167648 0.316406
0.935373 0.167648 0.316406
0.970000 0.167648 0.316406
0.004672 0.316406 0.316406
0.064627 0.316406 0.316406
0.179334 0.316406 0.316406
0.330542 0.316406 0.316406
0.500000 0.316406 0.316406
0.669458 0.316406 0.316406
0.820666 0.316406 0.316406
0.935373 0.316406 0.316406
0.970000 0.316406 0.316406
0.004672 0.485002 0.316406
0.064627 0.485002 0.316406
0.179334 0.485002 0.316406
0.330542 0.485002 0.316406
0.500000 0.485002 0.316406
0.670868 0.485560 0.316232
0.825288 0.487210 0.315716
0.940666 0.488860 0.315201
0.970000 0.490510 0.314686
0.004672 0.655185 0.316406
0.064627 0.655185 0.316406
0.181777 0.656292 0.316044
0.337654 0.657868 0.315529
0.511892 0.659442 0.315013
0.684806 0.661015 0.314498
0.836714 0.662586 0.313983
0.947931 0.664155 0.313469
0.970000 0.665723 0.312954
0.006170 0.811447 0.315341
0.071863 0.812770 0.314826
0.193636 0.814089 0.314311
0.351805 0.815405 0.313796
0.526686 0.816718 0.313281
0.698597 0.818027 0.312767
0.847854 0.819334 0.312253
0.954774 0.820636 0.311739
0.970000 0.821936 0.311225
0.009035 0.932176 0.313609
0.080177 0.933056 0.313094
0.205750 0.933932 0.312580
0.366072 0.934802 0.312066
0.541460 0.935668 0.311552
0.712229 0.936528 0.311038
0.858698 0.937383 0.310525
0.961182 0.938234 0.310011
0.970000 0.939079 0.309498
0.012420 0.970000 0.311879
0.088871 0.970000 0.311365
0.218108 0.970000 0.310851
0.380445 0.970000 0.310338
0.556201 0.970000 0.309825
0.725692 0.970000 0.309312
0.869234 0.970000 0.308799
0.967145 0.970000 0.308286
0.970000 0.970000 0.307774
0.001981 0.001889 0.520194
0.055049 0.001962 0.516529
0.166327 0.002036 0.512863
0.316858 0.002112 0.509197
0.487683 0.002189 0.505530
0.659845 0.002268 0.501863
0.814386 0.002348 0.498195
0.932348 0.002429 0.494528
0.970000 0.002511 0.490861
0.002797 0.054730 0.507862
0.058717 0.055088 0.504195
0.172043 0.055447 0.500527
0.323818 0.055807 0.496860
0.495084 0.056168 0.493193
0.666884 0.056530 0.489526
0.820260 0.056893 0.485860
0.935373 0.056978 0.485002
0.970000 0.056978 0.485002
0.003751 0.166031 0.495525
0.062487 0.166594 0.491858
0.177827 0.167157 0.488191
0.330542 0.167648 0.485002
0.500000 0.167648 0.485002
0.669458 0.167648 0.485002
0.820666 0.167648 0.485002
0.935373 0.167648 0.485002
0.970000 0.167648 0.485002
0.004672 0.316406 0.485002
0.064627 0.316406 0.485002
0.179334 0.316406 0.485002
0.330542 0.316406 0.485002
0.500000 0.316406 0.485002
0.669458 0.316406 0.485002
0.820666 0.316406 0.485002
0.935373 0.316406 0.485002
0.970000 0.316892 0.484829
0.004672 0.485002 0.485002
0.064627 0.485002 0.485002
0.179334 0.485002 0.485002
0.330542 0.485002 0.485002
0.500000 0.485002 0.485002
0.672281 0.486120 0.484629
0.826454 0.487770 0.484079
0.941418 0.489420 0.483530
0.970000 0.491070 0.482980
0.004672 0.655185 0.485002
0.064724 0.655251 0.484979
0.182962 0.656828 0.484429
0.339077 0.658403 0.483879
0.513386 0.659976 0.483329
0.686205 0.661548 0.482780
0.837851 0.663119 0.482230
0.948642 0.664688 0.481680
0.970000 0.666255 0.481130
0.006435 0.811897 0.483679
0.072685 0.813218 0.483129
0.194848 0.814536 0.482579
0.353240 0.815851 0.482030
0.528179 0.817163 0.481480
0.699981 0.818471 0.480930
0.848962 0.819776 0.480380
0.955441 0.821078 0.479831
0.970000 0.822376 0.479281
0.009354 0.932476 0.481829
0.081037 0.933354 0.481280
0.206987 0.934228 0.480730
0.367519 0.935097 0.480180
0.542949 0.935960 0.479630
0.713596 0.936819 0.479081
0.859776 0.937673 0.478531
0.961805 0.938521 0.477981
0.970000 0.939365 0.477432
0.012790 0.970000 0.479980
0.089770 0.970000 0.479430
0.219368 0.970000 0.478881
0.381902 0.970000 0.478331
0.557687 0.970000 0.477781
0.727041 0.970000 0.477232
0.870280 0.970000 0.476682
0.967721 0.970000 0.476133
0.970000 0.970000 0.475583
0.002057 0.001914 0.687295
0.055414 0.001987 0.683862
0.166901 0.002062 0.680420
0.317559 0.002138 0.676970
0.488430 0.002216 0.673510
0.660557 0.002295 0.670043
0.814982 0.002375 0.666567
0.932747 0.002457 0.663082
0.970000 0.002540 0.659590
0.002887 0.054852 0.675711
0.059093 0.055210 0.672249
0.172623 0.055569 0.668778
0.324522 0.055929 0.665299
0.495832 0.056291 0.661812
0.667593 0.056653 0.658317
0.820666 0.056978 0.655185
0.935373 0.056978 0.655185
0.970000 0.056978 0.655185
0.003855 0.166222 0.664030
0.062874 0.166785 0.660540
0.178415 0.167349 0.657043
0.330542 0.167648 0.655185
0.500000 0.167648 0.655185
0.669458 0.167648 0.655185
0.820666 0.167648 0.655185
0.935373 0.167648 0.655185
0.970000 0.167648 0.655185
0.004672 0.316406 0.655185
0.064627 0.316406 0.655185
0.179334 0.316406 0.655185
0.330542 0.316406 0.655185
0.500000 0.316406 0.655185
0.669458 0.316406 0.655185
0.820666 0.316406 0.655185
0.935373 0.316406 0.655185
0.970000 0.317418 0.654841
0.004672 0.485002 0.655185
0.064627 0.485002 0.655185
0.179334 0.485002 0.655185
0.330542 0.485002 0.655185
0.500077 0.485031 0.655176
0.673693 0.486681 0.654650
0.827617 0.488331 0.654123
0.942166 0.489980 0.653597
0.970000 0.491631 0.653071
0.004672 0.655185 0.655185
0.065510 0.655787 0.654984
0.184150 0.657363 0.654458
0.340501 0.658937 0.653932
0.514880 0.660511 0.653406
0.687603 0.662082 0.652879
0.838986 0.663652 0.652352
0.949347 0.665220 0.651826
0.970000 0.666787 0.651299
0.006706 0.812346 0.653740
0.073511 0.813666 0.653214
0.196062 0.814983 0.652687
0.354676 0.816297 0.652161
0.529671 0.817608 0.651634
0.701363 0.818915 0.651107
0.850068 0.820219 0.650579
0.956103 0.821519 0.650052
0.970000 0.822817 0.649525
0.009677 0.932775 0.651969
0.081902 0.933652 0.651442
0.208226 0.934523 0.650915
0.368966 0.935390 0.650388
0.544439 0.936252 0.649860
0.714962 0.937109 0.649332
0.860850 0.937961 0.648805
0.962422 0.938808 0.648277
0.970000 0.939650 0.647749
0.013165 0.970000 0.650195
0.090672 0.970000 0.649668
0.220631 0.970000 0.649140
0.383359 0.970000 0.648612
0.559172 0.970000 0.648085
0.728388 0.970000 0.647556
0.871323 0.970000 0.647028
0.968293 0.970000 0.646500
0.970000 0.970000 0.645971
0.002135 0.001938 0.834432
0.055781 0.002012 0.831613
0.167475 0.002088 0.828778
0.318260 0.002164 0.825926
0.489177 0.002242 0.823056
0.661269 0.002322 0.820170
0.815577 0.002403 0.817268
0.933144 0.002485 0.814349
0.970000 0.002568 0.811415
0.002979 0.054973 0.824883
0.059470 0.055332 0.822008
0.173205 0.055691 0.819116
0.325227 0.056052 0.816207
0.496579 0.056413 0.813283
0.668302 0.056776 0.810342
0.820666 0.056978 0.808704
0.935373 0.056978 0.808704
0.970000 0.056978 0.808704
0.003960 0.166413 0.815144
0.063261 0.166976 0.812214
0.179003 0.167540 0.809268
0.330542 0.167648 0.808704
0.500000 0.167648 0.808704
0.669458 0.167648 0.808704
0.820666 0.167648 0.808704
0.935373 0.167648 0.808704
0.970000 0.167648 0.808704
0.004672 0.316406 0.808704
0.064627 0.316406 0.808704
0.179334 0.316406 0.808704
0.330542 0.316406 0.808704
0.500000 0.316406 0.808704
0.669458 0.316406 0.808704
0.820666 0.316406 0.808704
0.935373 0.316406 0.808704
0.970000 0.317944 0.808263
0.004672 0.485002 0.808704
0.064627 0.485002 0.808704
0.179334 0.485002 0.808704
0.330542 0.485002 0.808704
0.501572 0.485591 0.808546
0.675104 0.487241 0.808102
0.828778 0.488891 0.807657
0.942910 0.490541 0.807213
0.970000 0.492191 0.806768
0.004672 0.655185 0.808704
0.066299 0.656322 0.808384
0.185341 0.657898 0.807940
0.341927 0.659472 0.807496
0.516374 0.661044 0.807051
0.688999 0.662615 0.806606
0.840118 0.664185 0.806160
0.950049 0.665752 0.805714
0.970000 0.667319 0.805268
0.006982 0.812795 0.807334
0.074340 0.814114 0.806889
0.197278 0.815430 0.806444
0.356114 0.816743 0.805998
0.531163 0.818052 0.805552
0.702743 0.819358 0.805106
0.851170 0.820661 0.804659
0.956761 0.821960 0.804212
0.970000 0.823256 0.803765
0.010006 0.933073 0.805836
0.082770 0.933948 0.805390
0.209467 0.934818 0.804943
0.370414 0.935684 0.804496
0.545928 0.936544 0.804049
0.716325 0.937399 0.803602
0.861922 0.938250 0.803154
0.963036 0.939095 0.802706
0.970000 0.939935 0.802257
0.013546 0.970000 0.804334
0.091578 0.970000 0.803887
0.221896 0.970000 0.803439
0.384817 0.970000 0.802991
0.560657 0.970000 0.802543
0.729733 0.970000 0.802094
0.872362 0.970000 0.801645
0.968861 0.970000 0.801196
0.970000 0.970000 0.800746
0.002214 0.001963 0.943746
0.056149 0.002038 0.941924
0.168051 0.002114 0.940078
0.318962 0.002191 0.938206
0.489924 0.002269 0.936309
0.661980 0.002349 0.934388
0.816172 0.002430 0.932442
0.933541 0.002513 0.930471
0.970000 0.002597 0.928476
0.003072 0.055095 0.937519
0.059848 0.055454 0.935613
0.173787 0.055814 0.933682
0.325933 0.056175 0.931727
0.497326 0.056537 0.929747
0.669010 0.056900 0.927744
0.820666 0.056978 0.927309
0.935373 0.056978 0.927309
0.970000 0.056978 0.927309
0.004067 0.166604 0.931009
0.063649 0.167168 0.929021
0.179334 0.167648 0.927309
0.330542 0.167648 0.927309
0.500000 0.167648 0.927309
0.669458 0.167648 0.927309
0.820666 0.167648 0.927309
0.935373 0.167648 0.927309
0.970000 0.167648 0.927309
0.004672 0.316406 0.927309
0.064627 0.316406 0.927309
0.179334 0.316406 0.927309
0.330542 0.316406 0.927309
0.500000 0.316406 0.927309
0.669458 0.316406 0.927309
0.820666 0.316406 0.927309
0.936138 0.316921 0.927208
0.970000 0.318470 0.926905
0.004672 0.485002 0.927309
0.064627 0.485002 0.927309
0.179334 0.485002 0.927309
0.330542 0.485002 0.927309
0.503066 0.486151 0.927098
0.676513 0.487801 0.926794
0.829935 0.489451 0.926490
0.943650 0.491101 0.926185
0.970000 0.492751 0.925879
0.004713 0.655281 0.927291
0.067093 0.656857 0.926987
0.186534 0.658432 0.926683
0.343353 0.660006 0.926379
0.517868 0.661578 0.926074
0.690393 0.663148 0.925768
0.841247 0.664717 0.925462
0.950746 0.666284 0.925155
0.970000 0.667850 0.924848
0.007264 0.813243 0.926268
0.075174 0.814561 0.925963
0.198498 0.815876 0.925657
0.357553 0.817188 0.925350
0.532655 0.818496 0.925043
0.704122 0.819801 0.924736
0.852269 0.821103 0.924428
0.957415 0.822401 0.924120
0.970000 0.823696 0.923811
0.010340 0.933371 0.925239
0.083642 0.934244 0.924932
0.210711 0.935113 0.924624
0.371864 0.935977 0.924316
0.547417 0.936835 0.924007
0.717687 0.937689 0.923698
0.862990 0.938537 0.923388
0.963644 0.939381 0.923078
0.970000 0.940219 0.922767
0.013931 0.970000 0.924203
0.092488 0.970000 0.923895
0.223164 0.970000 0.923585
0.386276 0.970000 0.923275
0.562142 0.970000 0.922965
0.731077 0.970000 0.922654
0.873398 0.970000 0.922342
0.969423 0.970000 0.922030
0.970000 0.970000 0.921717
0.002294 0.001988 0.970000
0.056517 0.002063 0.970000
0.168627 0.002140 0.970000
0.319664 0.002217 0.970000
0.490672 0.002296 0.970000
0.662692 0.002377 0.970000
0.816766 0.002458 0.970000
0.933937 0.002541 0.970000
0.970000 0.002626 0.970000
0.003166 0.055217 0.970000
0.060227 0.055576 0.970000
0.174370 0.055936 0.970000
0.326638 0.056297 0.970000
0.498073 0.056660 0.970000
0.669458 0.056978 0.970000
0.820666 0.056978 0.970000
0.935373 0.056978 0.970000
0.970000 0.056978 0.970000
0.004175 0.166796 0.970000
0.064039 0.167359 0.970000
0.179334 0.167648 0.970000
0.330542 0.167648 0.970000
0.500000 0.167648 0.970000
0.669458 0.167648 0.970000
0.820666 0.167648 0.970000
0.935373 0.167648 0.970000
0.970000 0.167648 0.970000
0.004672 0.316406 0.970000
0.064627 0.316406 0.970000
0.179334 0.316406 0.970000
0.330542 0.316406 0.970000
0.500000 0.316406 0.970000
0.669458 0.316406 0.970000
0.820666 0.316406 0.970000
0.936915 0.317447 0.970000
0.970000 0.318996 0.970000
0.004672 0.485002 0.970000
0.064627 0.485002 0.970000
0.179334 0.485002 0.970000
0.330693 0.485062 0.970000
0.504561 0.486712 0.970000
0.677921 0.488362 0.970000
0.831090 0.490012 0.970000
0.944385 0.491662 0.970000
0.970000 0.493312 0.970000
0.004946 0.655816 0.970000
0.067891 0.657392 0.970000
0.187730 0.658967 0.970000
0.344781 0.660540 0.970000
0.519361 0.662112 0.970000
0.691786 0.663681 0.970000
0.842373 0.665250 0.970000
0.951439 0.666816 0.970000
0.970000 0.668381 0.970000
0.007551 0.813691 0.970000
0.076011 0.815008 0.970000
0.199720 0.816322 0.970000
0.358992 0.817632 0.970000
0.534146 0.818939 0.970000
0.705499 0.820243 0.970000
0.853365 0.821544 0.970000
0.958064 0.822841 0.970000
0.970000 0.824135 0.970000
0.010680 0.933668 0.970000
0.084519 0.934540 0.970000
0.211958 0.935407 0.970000
0.373315 0.936269 0.970000
0.548905 0.937126 0.970000
0.719046 0.937977 0.970000
0.864055 0.938824 0.970000
0.964248 0.939666 0.970000
0.970000 0.940502 0.970000
0.014322 0.970000 0.970000
0.093401 0.970000 0.970000
0.224434 0.970000 0.970000
0.387736 0.970000 0.970000
0.563626 0.970000 0.970000
0.732418 0.970000 0.970000
0.874431 0.970000 0.970000
0.969981 0.970000 0.970000
0.970000 0.970000 0.970000
