backend/luts/kodak_2383.cube
# Kodak 2383 D55 inspired LUT
TITLE "Kodak 2383 D55"
LUT_3D_SIZE 5
0.001690 0.001792 0.009308
0.164039 0.001936 0.007801
0.484695 0.002085 0.006421
0.811995 0.002239 0.005172
0.970000 0.002399 0.004055
0.003350 0.165267 0.004750
0.175483 0.166392 0.003681
0.499498 0.167519 0.002744
0.820666 0.167648 0.002646
0.970000 0.167648 0.002646
0.004672 0.485002 0.002646
0.179334 0.485002 0.002646
0.500000 0.485002 0.002646
0.821773 0.485529 0.002626
0.970000 0.488829 0.002500
0.005406 0.810096 0.002579
0.190017 0.812745 0.002454
0.522207 0.815380 0.002332
0.844511 0.818003 0.002214
0.970000 0.820612 0.002098
0.011341 0.970000 0.002171
0.214340 0.970000 0.002056
0.551741 0.970000 0.001945
0.866076 0.970000 0.001836
0.970000 0.970000 0.001731
0.001833 0.001840 0.197532
0.165182 0.001986 0.191583
0.486189 0.002137 0.185697
0.813192 0.002293 0.179875
0.970000 0.002455 0.174120
0.003548 0.165649 0.177772
0.176654 0.166774 0.172041
0.500000 0.167648 0.167648
0.820666 0.167648 0.167648
0.970000 0.167648 0.167648
0.004672 0.485002 0.167648
0.179334 0.485002 0.167648
0.500000 0.485002 0.167648
0.824119 0.486650 0.167225
0.970000 0.489949 0.166380
0.005910 0.810997 0.166917
0.192427 0.813641 0.166073
0.525193 0.816272 0.165230
0.846743 0.818890 0.164388
0.970000 0.821495 0.163548
0.012055 0.970000 0.164082
0.216849 0.970000 0.163243
0.554715 0.970000 0.162405
0.868185 0.970000 0.161569
0.970000 0.970000 0.160735
0.001981 0.001889 0.520194
0.166327 0.002036 0.512863
0.487683 0.002189 0.505530
0.814386 0.002348 0.498195
0.970000 0.002511 0.490861
0.003751 0.166031 0.495525
0.177827 0.167157 0.488191
0.500000 0.167648 0.485002
0.820666 0.167648 0.485002
0.970000 0.167648 0.485002
0.004672 0.485002 0.485002
0.179334 0.485002 0.485002
0.500000 0.485002 0.485002
0.826454 0.487770 0.484079
0.970000 0.491070 0.482980
0.006435 0.811897 0.483679
0.194848 0.814536 0.482579
0.528179 0.817163 0.481480
0.848962 0.819776 0.480380
0.970000 0.822376 0.479281
0.012790 0.970000 0.479980
0.219368 0.970000 0.478881
0.557687 0.970000 0.477781
0.870280 0.970000 0.476682
0.970000 0.970000 0.475583
0.002135 0.001938 0.834432
0.167475 0.002088 0.828778
0.489177 0.002242 0.823056
0.815577 0.002403 0.817268
0.970000 0.002568 0.811415
0.003960 0.166413 0.815144
0.179003 0.167540 0.809268
0.500000 0.167648 0.808704
0.820666 0.167648 0.808704
0.970000 0.167648 0.808704
0.004672 0.485002 0.808704
0.179334 0.485002 0.808704
0.501572 0.485591 0.808546
0.828778 0.488891 0.807657
0.970000 0.492191 0.806768
0.006982 0.812795 0.807334
0.197278 0.815430 0.806444
0.531163 0.818052 0.805552
0.851170 0.820661 0.804659
0.970000 0.823256 0.803765
0.013546 0.970000 0.804334
0.221896 0.970000 0.803439
0.560657 0.970000 0.802543
0.872362 0.970000 0.801645
0.970000 0.970000 0.800746
0.002294 0.001988 0.970000
0.168627 0.002140 0.970000
0.490672 0.002296 0.970000
0.816766 0.002458 0.970000
0.970000 0.002626 0.970000
0.004175 0.166796 0.970000
0.179334 0.167648 0.970000
0.500000 0.167648 0.970000
0.820666 0.167648 0.970000
0.970000 0.167648 0.970000
0.004672 0.485002 0.970000
0.179334 0.485002 0.970000
0.504561 0.486712 0.970000
0.831090 0.490012 0.970000
0.970000 0.493312 0.970000
0.007551 0.813691 0.970000
0.199720 0.816322 0.970000
0.534146 0.818939 0.970000
0.853365 0.821544 0.970000
0.970000 0.824135 0.970000
0.014322 0.970000 0.970000
0.224434 0.970000 0.970000
0.563626 0.970000 0.970000
0.874431 0.970000 0.970000
0.970000 0.970000 0.970000
