backend/luts/kodak_2383.cube
# Kodak 2383 D55 inspired LUT
TITLE "Kodak 2383 D55"
LUT_3D_SIZE 17
0.001690 0.001792 0.009308
0.019142 0.001827 0.008919
0.053597 0.001863 0.008538
0.102686 0.001899 0.008165
0.164039 0.001936 0.007801
0.235286 0.001972 0.007444
0.314058 0.002010 0.007095
0.397984 0.002047 0.006754
0.484695 0.002085 0.006421
0.571822 0.002123 0.006097
0.656994 0.002161 0.005781
0.737841 0.002200 0.005472
0.811995 0.002239 0.005172
0.877086 0.002279 0.004881
0.930742 0.002319 0.004597
0.970000 0.002359 0.004322
0.970000 0.002399 0.004055
0.002053 0.019507 0.008032
0.020274 0.019619 0.007670
0.055397 0.019731 0.007316
0.105054 0.019844 0.006970
0.166874 0.019956 0.006632
0.238488 0.020069 0.006302
0.317526 0.020182 0.005981
0.401618 0.020296 0.005667
0.488395 0.020410 0.005362
0.575487 0.020524 0.005065
0.660524 0.020638 0.004776
0.741136 0.020753 0.004496
0.814954 0.020868 0.004223
0.879608 0.020984 0.003959
0.932728 0.021099 0.003704
0.970000 0.021215 0.003456
0.970000 0.021331 0.003217
0.002451 0.054246 0.006846
0.021436 0.054424 0.006511
0.057223 0.054602 0.006184
0.107443 0.054781 0.005866
0.169726 0.054960 0.005555
0.241703 0.055139 0.005253
0.321003 0.055318 0.004959
0.405257 0.055498 0.004673
0.492096 0.055678 0.004396
0.579148 0.055858 0.004126
0.664046 0.056038 0.003865
0.744418 0.056219 0.003613
0.817896 0.056400 0.003368
0.882109 0.056581 0.003132
0.934688 0.056762 0.002905
0.970000 0.056944 0.002686
0.970000 0.056978 0.002646
0.002883 0.103626 0.005752
0.022628 0.103860 0.005444
0.059075 0.104095 0.005145
0.109854 0.104330 0.004854
0.172596 0.104565 0.004571
0.244931 0.104800 0.004297
0.324489 0.105036 0.004030
0.408901 0.105272 0.003772
0.495797 0.105508 0.003523
0.582806 0.105744 0.003281
0.667560 0.105980 0.003049
0.747688 0.106217 0.002824
0.820666 0.106411 0.002646
0.883723 0.106411 0.002646
0.935373 0.106411 0.002646
0.970000 0.106411 0.002646
0.970000 0.106411 0.002646
0.003350 0.165267 0.004750
0.023850 0.165548 0.004470
0.060952 0.165829 0.004199
0.112287 0.166110 0.003936
0.175483 0.166392 0.003681
0.248172 0.166673 0.003434
0.327984 0.166955 0.003196
0.412549 0.167237 0.002966
0.499498 0.167519 0.002744
0.585870 0.167648 0.002646
0.669458 0.167648 0.002646
0.748484 0.167648 0.002646
0.820666 0.167648 0.002646
0.883723 0.167648 0.002646
0.935373 0.167648 0.002646
0.970000 0.167648 0.002646
0.970000 0.167648 0.002646
0.003850 0.236790 0.003842
0.025102 0.237107 0.003590
0.062855 0.237424 0.003346
0.114740 0.237742 0.003111
0.178387 0.238060 0.002884
0.251426 0.238377 0.002666
0.330542 0.238407 0.002646
0.414130 0.238407 0.002646
0.500000 0.238407 0.002646
0.585870 0.238407 0.002646
0.669458 0.238407 0.002646
0.748484 0.238407 0.002646
0.820666 0.238407 0.002646
0.883723 0.238407 0.002646
0.935373 0.238407 0.002646
0.970000 0.238407 0.002646
0.970000 0.238407 0.002646
0.004384 0.315812 0.003028
0.026384 0.316156 0.002804
0.064627 0.316406 0.002646
0.116277 0.316406 0.002646
0.179334 0.316406 0.002646
0.251516 0.316406 0.002646
0.330542 0.316406 0.002646
0.414130 0.316406 0.002646
0.500000 0.316406 0.002646
0.585870 0.316406 0.002646
0.669458 0.316406 0.002646
0.748484 0.316406 0.002646
0.820666 0.316406 0.002646
0.883723 0.316406 0.002646
0.935373 0.316406 0.002646
0.970000 0.316406 0.002646
0.970000 0.316406 0.002646
0.004672 0.399365 0.002646
0.026665 0.399365 0.002646
0.064627 0.399365 0.002646
0.116277 0.399365 0.002646
0.179334 0.399365 0.002646
0.251516 0.399365 0.002646
0.330542 0.399365 0.002646
0.414130 0.399365 0.002646
0.500000 0.399365 0.002646
0.585870 0.399365 0.002646
0.669458 0.399365 0.002646
0.748484 0.399365 0.002646
0.820666 0.399365 0.002646
0.883723 0.399365 0.002646
0.935373 0.399365 0.002646
0.970000 0.399588 0.002637
0.970000 0.400398 0.002605
0.004672 0.485002 0.002646
0.026665 0.485002 0.002646
0.064627 0.485002 0.002646
0.116277 0.485002 0.002646
0.179334 0.485002 0.002646
0.251516 0.485002 0.002646
0.330542 0.485002 0.002646
0.414130 0.485002 0.002646
0.500000 0.485002 0.002646
0.585870 0.485002 0.002646
0.669458 0.485002 0.002646
0.748484 0.485002 0.002646
0.821773 0.485529 0.002626
0.886127 0.486354 0.002594
0.938384 0.487179 0.002562
0.970000 0.488004 0.002531
0.970000 0.488829 0.002500
0.004672 0.571036 0.002646
0.026665 0.571036 0.002646
0.064627 0.571036 0.002646
0.116277 0.571036 0.002646
0.179334 0.571036 0.002646
0.251516 0.571036 0.002646
0.330542 0.571036 0.002646
0.414130 0.571036 0.002646
0.500007 0.571038 0.002646
0.588047 0.571856 0.002614
0.673627 0.572673 0.002582
0.754285 0.573491 0.002551
0.827563 0.574308 0.002519
0.890998 0.575125 0.002488
0.942131 0.575941 0.002457
0.970000 0.576758 0.002426
0.970000 0.577574 0.002396
0.004672 0.655185 0.002646
0.026665 0.655185 0.002646
0.064627 0.655185 0.002646
0.116277 0.655185 0.002646
0.179334 0.655185 0.002646
0.252228 0.655474 0.002634
0.333394 0.656263 0.002602
0.419274 0.657051 0.002571
0.507409 0.657838 0.002539
0.595338 0.658626 0.002508
0.680600 0.659413 0.002477
0.760735 0.660199 0.002446
0.833283 0.660985 0.002415
0.895783 0.661771 0.002385
0.945775 0.662556 0.002354
0.970000 0.663341 0.002324
0.970000 0.664126 0.002294
0.004672 0.735168 0.002646
0.026665 0.735168 0.002646
0.065473 0.735707 0.002623
0.118838 0.736445 0.002591
0.184094 0.737181 0.002559
0.258780 0.737917 0.002528
0.340434 0.738653 0.002497
0.426598 0.739388 0.002466
0.514810 0.740122 0.002435
0.602609 0.740856 0.002404
0.687537 0.741589 0.002374
0.767131 0.742321 0.002343
0.838933 0.743053 0.002313
0.900481 0.743784 0.002283
0.949314 0.744515 0.002254
0.970000 0.745245 0.002224
0.970000 0.745974 0.002195
0.005406 0.810096 0.002579
0.029112 0.810760 0.002548
0.069423 0.811422 0.002516
0.123878 0.812084 0.002485
0.190017 0.812745 0.002454
0.265380 0.813405 0.002424
0.347506 0.814064 0.002393
0.433936 0.814723 0.002363
0.522207 0.815380 0.002332
0.609861 0.816037 0.002302
0.694437 0.816693 0.002273
0.773473 0.817348 0.002243
0.844511 0.818003 0.002214
0.905089 0.818656 0.002184
0.952747 0.819309 0.002155
0.970000 0.819961 0.002126
0.970000 0.820612 0.002098
0.006693 0.876614 0.002474
0.031883 0.877179 0.002443
0.073472 0.877743 0.002412
0.128999 0.878305 0.002382
0.196005 0.878867 0.002352
0.272028 0.879428 0.002322
0.354609 0.879988 0.002292
0.441286 0.880547 0.002262
0.529601 0.881105 0.002232
0.617091 0.881661 0.002203
0.701298 0.882217 0.002174
0.779759 0.882772 0.002145
0.850016 0.883325 0.002116
0.909607 0.883878 0.002087
0.956072 0.884429 0.002059
0.970000 0.884980 0.002031
0.970000 0.885529 0.002003
0.008112 0.931274 0.002371
0.034769 0.931717 0.002341
0.077618 0.932159 0.002311
0.134201 0.932600 0.002281
0.202055 0.933040 0.002251
0.278722 0.933478 0.002222
0.361740 0.933915 0.002192
0.448649 0.934351 0.002163
0.536988 0.934786 0.002134
0.624298 0.935219 0.002106
0.708118 0.935651 0.002077
0.785988 0.936082 0.002049
0.855446 0.936512 0.002021
0.914033 0.936940 0.001993
0.959288 0.937367 0.001965
0.970000 0.937793 0.001937
0.970000 0.938218 0.001910
0.009662 0.970000 0.002270
0.037768 0.970000 0.002240
0.081861 0.970000 0.002211
0.139481 0.970000 0.002182
0.208167 0.970000 0.002153
0.285460 0.970000 0.002124
0.368898 0.970000 0.002095
0.456021 0.970000 0.002067
0.544369 0.970000 0.002038
0.631481 0.970000 0.002010
0.714897 0.970000 0.001982
0.792157 0.970000 0.001955
0.860800 0.970000 0.001927
0.918365 0.970000 0.001900
0.962393 0.970000 0.001873
0.970000 0.970000 0.001846
0.970000 0.970000 0.001819
0.011341 0.970000 0.002171
0.040879 0.970000 0.002142
0.086199 0.970000 0.002113
0.144839 0.970000 0.002085
0.214340 0.970000 0.002056
0.292241 0.970000 0.002028
0.376082 0.970000 0.002000
0.463402 0.970000 0.001972
0.551741 0.970000 0.001945
0.638638 0.970000 0.001917
0.721633 0.970000 0.001890
0.798266 0.970000 0.001863
0.866076 0.970000 0.001836
0.922603 0.970000 0.001809
0.965387 0.970000 0.001783
0.970000 0.970000 0.001757
0.970000 0.970000 0.001731
0.001725 0.001804 0.035948
0.019255 0.001839 0.035211
0.053778 0.001875 0.034481
0.102924 0.001911 0.033758
0.164324 0.001948 0.033043
0.235609 0.001985 0.032334
0.314407 0.002022 0.031632
0.398351 0.002060 0.030938
0.485069 0.002098 0.030250
0.572192 0.002136 0.029570
0.657350 0.002175 0.028896
0.738175 0.002214 0.028230
0.812295 0.002253 0.027571
0.877341 0.002292 0.026919
0.930944 0.002332 0.026275
0.970000 0.002373 0.025637
0.970000 0.002413 0.025007
0.002092 0.019545 0.033497
0.020390 0.019657 0.032784
0.055580 0.019769 0.032078
0.105294 0.019882 0.031379
0.167161 0.019995 0.030687
0.238812 0.020108 0.030002
0.317876 0.020221 0.029324
0.401985 0.020335 0.028653
0.488769 0.020449 0.027989
0.575857 0.020563 0.027333
0.660880 0.020677 0.026684
0.741468 0.020792 0.026042
0.815252 0.020907 0.025407
0.879861 0.021023 0.024779
0.932927 0.021139 0.024159
0.970000 0.021255 0.023546
0.970000 0.021371 0.022941
0.002493 0.054306 0.031126
0.021555 0.054484 0.030436
0.057409 0.054663 0.029754
0.107686 0.054841 0.029079
0.170015 0.055020 0.028411
0.242028 0.055200 0.027750
0.321355 0.055379 0.027096
0.405625 0.055559 0.026449
0.492469 0.055739 0.025810
0.579518 0.055919 0.025178
0.664401 0.056100 0.024553
0.744749 0.056280 0.023935
0.818192 0.056461 0.023325
0.882361 0.056643 0.022722
0.934885 0.056824 0.022126
0.970000 0.056978 0.021629
0.970000 0.056978 0.021629
0.002929 0.103705 0.028835
0.022750 0.103940 0.028169
0.059263 0.104175 0.027511
0.110099 0.104410 0.026859
0.172887 0.104645 0.026216
0.245258 0.104880 0.025579
0.324842 0.105116 0.024949
0.409269 0.105352 0.024327
0.496170 0.105588 0.023712
0.583175 0.105824 0.023105
0.667914 0.106061 0.022504
0.748018 0.106297 0.021911
0.820666 0.106411 0.021629
0.883723 0.106411 0.021629
0.935373 0.106411 0.021629
0.970000 0.106411 0.021629
0.970000 0.106411 0.021629
0.003399 0.165363 0.026624
0.023975 0.165644 0.025983
0.061143 0.165925 0.025349
0.112533 0.166206 0.024722
0.175776 0.166487 0.024102
0.248500 0.166769 0.023490
0.328337 0.167051 0.022885
0.412918 0.167333 0.022288
0.499871 0.167615 0.021697
0.585870 0.167648 0.021629
0.669458 0.167648 0.021629
0.748484 0.167648 0.021629
0.820666 0.167648 0.021629
0.883723 0.167648 0.021629
0.935373 0.167648 0.021629
0.970000 0.167648 0.021629
0.970000 0.167648 0.021629
0.003902 0.236897 0.024496
0.025230 0.237215 0.023879
0.063049 0.237532 0.023269
0.114989 0.237850 0.022667
0.178681 0.238167 0.022072
0.251516 0.238407 0.021629
0.330542 0.238407 0.021629
0.414130 0.238407 0.021629
0.500000 0.238407 0.021629
0.585870 0.238407 0.021629
0.669458 0.238407 0.021629
0.748484 0.238407 0.021629
0.820666 0.238407 0.021629
0.883723 0.238407 0.021629
0.935373 0.238407 0.021629
0.970000 0.238407 0.021629
0.970000 0.238407 0.021629
0.004440 0.315929 0.022449
0.026515 0.316273 0.021857
0.064627 0.316406 0.021629
0.116277 0.316406 0.021629
0.179334 0.316406 0.021629
0.251516 0.316406 0.021629
0.330542 0.316406 0.021629
0.414130 0.316406 0.021629
0.500000 0.316406 0.021629
0.585870 0.316406 0.021629
0.669458 0.316406 0.021629
0.748484 0.316406 0.021629
0.820666 0.316406 0.021629
0.883723 0.316406 0.021629
0.935373 0.316406 0.021629
0.970000 0.316406 0.021629
0.970000 0.316406 0.021629
0.004672 0.399365 0.021629
0.026665 0.399365 0.021629
0.064627 0.399365 0.021629
0.116277 0.399365 0.021629
0.179334 0.399365 0.021629
0.251516 0.399365 0.021629
0.330542 0.399365 0.021629
0.414130 0.399365 0.021629
0.500000 0.399365 0.021629
0.585870 0.399365 0.021629
0.669458 0.399365 0.021629
0.748484 0.399365 0.021629
0.820666 0.399365 0.021629
0.883723 0.399365 0.021629
0.935373 0.399365 0.021629
0.970000 0.399863 0.021575
0.970000 0.400673 0.021487
0.004672 0.485002 0.021629
0.026665 0.485002 0.021629
0.064627 0.485002 0.021629
0.116277 0.485002 0.021629
0.179334 0.485002 0.021629
0.251516 0.485002 0.021629
0.330542 0.485002 0.021629
0.414130 0.485002 0.021629
0.500000 0.485002 0.021629
0.585870 0.485002 0.021629
0.669458 0.485002 0.021629
0.748484 0.485002 0.021629
0.822361 0.485809 0.021543
0.886622 0.486634 0.021455
0.938767 0.487459 0.021368
0.970000 0.488284 0.021281
0.970000 0.489109 0.021194
0.004672 0.571036 0.021629
0.026665 0.571036 0.021629
0.064627 0.571036 0.021629
0.116277 0.571036 0.021629
0.179334 0.571036 0.021629
0.251516 0.571036 0.021629
0.330542 0.571036 0.021629
0.414130 0.571036 0.021629
0.500754 0.571316 0.021599
0.588784 0.572133 0.021511
0.674332 0.572951 0.021424
0.754939 0.573768 0.021336
0.828143 0.574585 0.021249
0.891485 0.575402 0.021162
0.942504 0.576219 0.021075
0.970000 0.577035 0.020988
0.970000 0.577851 0.020902
0.004672 0.655185 0.021629
0.026665 0.655185 0.021629
0.064627 0.655185 0.021629
0.116277 0.655185 0.021629
0.179334 0.655185 0.021629
0.252887 0.655742 0.021567
0.334103 0.656530 0.021479
0.420013 0.657318 0.021392
0.508156 0.658106 0.021304
0.596073 0.658893 0.021217
0.681302 0.659680 0.021130
0.761383 0.660466 0.021043
0.833856 0.661252 0.020957
0.896261 0.662038 0.020870
0.946137 0.662823 0.020784
0.970000 0.663608 0.020698
0.970000 0.664392 0.020612
0.004672 0.735168 0.021629
0.026720 0.735220 0.021623
0.065867 0.735958 0.021535
0.119343 0.736695 0.021447
0.184689 0.737431 0.021360
0.259444 0.738167 0.021273
0.341147 0.738903 0.021186
0.427338 0.739637 0.021099
0.515557 0.740371 0.021012
0.603342 0.741105 0.020925
0.688235 0.741838 0.020839
0.767774 0.742570 0.020753
0.839499 0.743302 0.020667
0.900950 0.744033 0.020581
0.949666 0.744763 0.020495
0.970000 0.745493 0.020409
0.970000 0.746222 0.020324
0.005530 0.810322 0.021416
0.029386 0.810985 0.021328
0.069827 0.811647 0.021241
0.124391 0.812309 0.021154
0.190619 0.812969 0.021067
0.266049 0.813629 0.020980
0.348222 0.814288 0.020894
0.434677 0.814946 0.020808
0.522954 0.815604 0.020721
0.610592 0.816260 0.020635
0.695131 0.816916 0.020549
0.774110 0.817571 0.020464
0.845070 0.818225 0.020378
0.905549 0.818878 0.020293
0.953088 0.819530 0.020208
0.970000 0.820182 0.020123
0.970000 0.820833 0.020038
0.006830 0.876806 0.021122
0.032169 0.877370 0.021036
0.073886 0.877934 0.020949
0.129520 0.878496 0.020862
0.196612 0.879058 0.020776
0.272702 0.879618 0.020690
0.355327 0.880178 0.020604
0.442029 0.880736 0.020518
0.530347 0.881294 0.020433
0.617820 0.881850 0.020347
0.701988 0.882405 0.020262
0.780391 0.882960 0.020177
0.850567 0.883513 0.020092
0.910058 0.884065 0.020007
0.956402 0.884616 0.019922
0.970000 0.885166 0.019838
0.970000 0.885716 0.019754
0.008263 0.931425 0.020831
0.035066 0.931868 0.020745
0.078042 0.932309 0.020659
0.134730 0.932750 0.020573
0.202669 0.933189 0.020487
0.279400 0.933627 0.020401
0.362461 0.934064 0.020316
0.449392 0.934499 0.020231
0.537734 0.934933 0.020146
0.625025 0.935366 0.020061
0.708804 0.935798 0.019976
0.786613 0.936228 0.019892
0.855990 0.936657 0.019807
0.914474 0.937085 0.019723
0.959607 0.937512 0.019639
0.970000 0.937937 0.019555
0.970000 0.938362 0.019471
0.009826 0.970000 0.020542
0.038077 0.970000 0.020456
0.082295 0.970000 0.020370
0.140019 0.970000 0.020285
0.208788 0.970000 0.020200
0.286143 0.970000 0.020115
0.369622 0.970000 0.020030
0.456766 0.970000 0.019945
0.545113 0.970000 0.019861
0.632205 0.970000 0.019777
0.715579 0.970000 0.019692
0.792776 0.970000 0.019608
0.861336 0.970000 0.019525
0.918798 0.970000 0.019441
0.962701 0.970000 0.019357
0.970000 0.970000 0.019274
0.970000 0.970000 0.019191
0.011517 0.970000 0.020254
0.041199 0.970000 0.020169
0.086642 0.970000 0.020084
0.145384 0.970000 0.019999
0.214967 0.970000 0.019915
0.292928 0.970000 0.019830
0.376808 0.970000 0.019746
0.464147 0.970000 0.019662
0.552484 0.970000 0.019578
0.639359 0.970000 0.019494
0.722311 0.970000 0.019411
0.798879 0.970000 0.019327
0.866605 0.970000 0.019244
0.923026 0.970000 0.019161
0.965683 0.970000 0.019078
0.970000 0.970000 0.018995
0.970000 0.970000 0.018912
0.001761 0.001816 0.077686
0.019368 0.001852 0.076649
0.053959 0.001888 0.075619
0.103162 0.001924 0.074594
0.164610 0.001961 0.073575
0.235931 0.001998 0.072563
0.314757 0.002035 0.071556
0.398717 0.002073 0.070555
0.485442 0.002111 0.069560
0.572562 0.002149 0.068572
0.657707 0.002188 0.067589
0.738508 0.002227 0.066613
0.812594 0.002266 0.065643
0.877596 0.002306 0.064679
0.931145 0.002346 0.063721
0.970000 0.002386 0.062769
0.970000 0.002427 0.061823
0.002131 0.019583 0.074222
0.020506 0.019695 0.073206
0.055764 0.019808 0.072195
0.105534 0.019920 0.071191
0.167448 0.020033 0.070192
0.239136 0.020146 0.069200
0.318227 0.020260 0.068213
0.402353 0.020373 0.067233
0.489142 0.020487 0.066259
0.576226 0.020602 0.065291
0.661235 0.020716 0.064329
0.741800 0.020831 0.063373
0.815549 0.020947 0.062424
0.880115 0.021062 0.061481
0.933126 0.021178 0.060544
0.970000 0.021294 0.059613
0.970000 0.021410 0.058689
0.002536 0.054367 0.070827
0.021674 0.054545 0.069830
0.057595 0.054723 0.068840
0.107928 0.054902 0.067856
0.170304 0.055081 0.066878
0.242354 0.055261 0.065906
0.321706 0.055440 0.064940
0.405993 0.055620 0.063980
0.492843 0.055800 0.063027
0.579887 0.055980 0.062080
0.664756 0.056161 0.061139
0.745080 0.056342 0.060204
0.818488 0.056523 0.059276
0.882612 0.056704 0.058354
0.935081 0.056886 0.057438
0.970000 0.056978 0.056978
0.970000 0.056978 0.056978
0.002975 0.103785 0.067499
0.022872 0.104020 0.066523
0.059452 0.104255 0.065553
0.110343 0.104490 0.064590
0.173178 0.104725 0.063633
0.245584 0.104960 0.062682
0.325194 0.105196 0.061737
0.409637 0.105432 0.060798
0.496544 0.105668 0.059866
0.583544 0.105904 0.058940
0.668268 0.106141 0.058020
0.748347 0.106378 0.057106
0.820666 0.106411 0.056978
0.883723 0.106411 0.056978
0.935373 0.106411 0.056978
0.970000 0.106411 0.056978
0.970000 0.106411 0.056978
0.003448 0.165458 0.064241
0.024100 0.165739 0.063286
0.061334 0.166020 0.062337
0.112780 0.166302 0.061394
0.176068 0.166583 0.060458
0.248828 0.166865 0.059528
0.328691 0.167147 0.058604
0.413286 0.167429 0.057687
0.500000 0.167648 0.056978
0.585870 0.167648 0.056978
0.669458 0.167648 0.056978
0.748484 0.167648 0.056978
0.820666 0.167648 0.056978
0.883723 0.167648 0.056978
0.935373 0.167648 0.056978
0.970000 0.167648 0.056978
0.970000 0.167648 0.056978
0.003955 0.237005 0.061053
0.025358 0.237323 0.060119
0.063243 0.237640 0.059191
0.115238 0.237958 0.058269
0.178976 0.238275 0.057354
0.251516 0.238407 0.056978
0.330542 0.238407 0.056978
0.414130 0.238407 0.056978
0.500000 0.238407 0.056978
0.585870 0.238407 0.056978
0.669458 0.238407 0.056978
0.748484 0.238407 0.056978
0.820666 0.238407 0.056978
0.883723 0.238407 0.056978
0.935373 0.238407 0.056978
0.970000 0.238407 0.056978
0.970000 0.238407 0.056978
0.004496 0.316046 0.057935
0.026646 0.316389 0.057023
0.064627 0.316406 0.056978
0.116277 0.316406 0.056978
0.179334 0.316406 0.056978
0.251516 0.316406 0.056978
0.330542 0.316406 0.056978
0.414130 0.316406 0.056978
0.500000 0.316406 0.056978
0.585870 0.316406 0.056978
0.669458 0.316406 0.056978
0.748484 0.316406 0.056978
0.820666 0.316406 0.056978
0.883723 0.316406 0.056978
0.935373 0.316406 0.056978
0.970000 0.316406 0.056978
0.970000 0.316406 0.056978
0.004672 0.399365 0.056978
0.026665 0.399365 0.056978
0.064627 0.399365 0.056978
0.116277 0.399365 0.056978
0.179334 0.399365 0.056978
0.251516 0.399365 0.056978
0.330542 0.399365 0.056978
0.414130 0.399365 0.056978
0.500000 0.399365 0.056978
0.585870 0.399365 0.056978
0.669458 0.399365 0.056978
0.748484 0.399365 0.056978
0.820666 0.399365 0.056978
0.883723 0.399365 0.056978
0.935373 0.399365 0.056978
0.970000 0.400138 0.056848
0.970000 0.400949 0.056711
0.004672 0.485002 0.056978
0.026665 0.485002 0.056978
0.064627 0.485002 0.056978
0.116277 0.485002 0.056978
0.179334 0.485002 0.056978
0.251516 0.485002 0.056978
0.330542 0.485002 0.056978
0.414130 0.485002 0.056978
0.500000 0.485002 0.056978
0.585870 0.485002 0.056978
0.669458 0.485002 0.056978
0.749101 0.485265 0.056934
0.822948 0.486089 0.056798
0.887117 0.486914 0.056662
0.939149 0.487739 0.056526
0.970000 0.488564 0.056390
0.970000 0.489389 0.056254
0.004672 0.571036 0.056978
0.026665 0.571036 0.056978
0.064627 0.571036 0.056978
0.116277 0.571036 0.056978
0.179334 0.571036 0.056978
0.251516 0.571036 0.056978
0.330542 0.571036 0.056978
0.414130 0.571036 0.056978
0.501501 0.571594 0.056885
0.589520 0.572411 0.056748
0.675037 0.573228 0.056612
0.755592 0.574046 0.056476
0.828723 0.574862 0.056341
0.891971 0.575679 0.056205
0.942875 0.576496 0.056069
0.970000 0.577312 0.055934
0.970000 0.578129 0.055799
0.004672 0.655185 0.056978
0.026665 0.655185 0.056978
0.064627 0.655185 0.056978
0.116277 0.655185 0.056978
0.179414 0.655221 0.056971
0.253547 0.656010 0.056835
0.334813 0.656798 0.056699
0.420752 0.657586 0.056563
0.508903 0.658373 0.056427
0.596807 0.659160 0.056291
0.682003 0.659947 0.056156
0.762031 0.660733 0.056020
0.834429 0.661519 0.055885
0.896739 0.662304 0.055750
0.946498 0.663089 0.055615
0.970000 0.663874 0.055480
0.970000 0.664658 0.055345
0.004672 0.735168 0.056978
0.026984 0.735471 0.056922
0.066262 0.736208 0.056786
0.119849 0.736945 0.056649
0.185285 0.737681 0.056513
0.260108 0.738417 0.056378
0.341860 0.739152 0.056242
0.428078 0.739887 0.056106
0.516303 0.740621 0.055971
0.604075 0.741354 0.055836
0.688933 0.742086 0.055701
0.768416 0.742818 0.055566
0.840065 0.743550 0.055431
0.901418 0.744281 0.055296
0.950016 0.745011 0.055162
0.970000 0.745741 0.055027
0.970000 0.746470 0.054893
0.005655 0.810547 0.056600
0.029662 0.811210 0.056464
0.070232 0.811872 0.056328
0.124905 0.812533 0.056193
0.191221 0.813193 0.056057
0.266718 0.813853 0.055922
0.348938 0.814512 0.055786
0.435419 0.815170 0.055651
0.523700 0.815827 0.055516
0.611323 0.816483 0.055382
0.695825 0.817138 0.055247
0.774747 0.817793 0.055113
0.845628 0.818447 0.054978
0.906008 0.819100 0.054844
0.953427 0.819752 0.054710
0.970000 0.820403 0.054576
0.970000 0.821054 0.054442
0.006969 0.876998 0.056143
0.032456 0.877562 0.056008
0.074301 0.878125 0.055872
0.130043 0.878687 0.055737
0.197221 0.879248 0.055602
0.273376 0.879809 0.055467
0.356046 0.880368 0.055333
0.442772 0.880926 0.055198
0.531093 0.881483 0.055064
0.618548 0.882039 0.054929
0.702678 0.882594 0.054795
0.781021 0.883148 0.054661
0.851118 0.883701 0.054527
0.910508 0.884252 0.054394
0.956730 0.884803 0.054260
0.970000 0.885353 0.054127
0.970000 0.885902 0.053993
0.008415 0.931575 0.055688
0.035365 0.932018 0.055553
0.078467 0.932459 0.055418
0.135260 0.932899 0.055284
0.203284 0.933338 0.055149
0.280079 0.933775 0.055015
0.363183 0.934212 0.054880
0.450136 0.934647 0.054746
0.538479 0.935080 0.054612
0.625751 0.935513 0.054479
0.709490 0.935944 0.054345
0.787238 0.936374 0.054211
0.856533 0.936803 0.054078
0.914915 0.937230 0.053945
0.959924 0.937657 0.053812
0.970000 0.938082 0.053679
0.970000 0.938505 0.053546
0.009991 0.970000 0.055235
0.038387 0.970000 0.055100
0.082729 0.970000 0.054966
0.140557 0.970000 0.054832
0.209409 0.970000 0.054698
0.286826 0.970000 0.054564
0.370346 0.970000 0.054430
0.457510 0.970000 0.054296
0.545858 0.970000 0.054163
0.632928 0.970000 0.054030
0.716261 0.970000 0.053896
0.793395 0.970000 0.053763
0.861871 0.970000 0.053630
0.919229 0.970000 0.053498
0.963007 0.970000 0.053365
0.970000 0.970000 0.053233
0.970000 0.970000 0.053100
0.011695 0.970000 0.054783
0.041521 0.970000 0.054649
0.087086 0.970000 0.054515
0.145930 0.970000 0.054381
0.215594 0.970000 0.054248
0.293615 0.970000 0.054114
0.377535 0.970000 0.053981
0.464893 0.970000 0.053848
0.553228 0.970000 0.053715
0.640080 0.970000 0.053582
0.722988 0.970000 0.053449
0.799492 0.970000 0.053317
0.867132 0.970000 0.053184
0.923447 0.970000 0.053052
0.965977 0.970000 0.052920
0.970000 0.970000 0.052788
0.970000 0.970000 0.052656
0.001796 0.001828 0.132292
0.019482 0.001864 0.131003
0.054140 0.001900 0.129719
0.103401 0.001936 0.128440
0.164896 0.001973 0.127166
0.236254 0.002010 0.125897
0.315107 0.002048 0.124633
0.399084 0.002086 0.123374
0.485816 0.002124 0.122120
0.572932 0.002162 0.120871
0.658064 0.002201 0.119627
0.738840 0.002240 0.118388
0.812893 0.002280 0.117155
0.877852 0.002320 0.115926
0.931346 0.002360 0.114703
0.970000 0.002400 0.113485
0.970000 0.002441 0.112272
0.002170 0.019621 0.127976
0.020622 0.019733 0.126704
